!!!!SEGMENT: pl-cz--iii-553--001-003_raszek-waclaw--missa-in-f-credo.krn
!!!cenid: 18xx:996
!!!COM: Raszek, Wacław
!!!COM-rismID: pe30020314
!!!CDT: <1848->1848
!!!CNT:
!!!OPR: Missa in F
!!!OTL: Credo
!!!OMV: 003
!!!PDT: 1829
!!!AGN: Sacred; Mass
!!!SMS-siglum: PL-CZ
!!!SMS-shelfmark: III-553
!!!SMS-shelfwork: 001-003 M
!!!SMS-variant:
!!!SMS-altvar:
!!!NIFC-rismSourceID: 300001048
!!!NIFC-rismChildID: 300001048
!!!NIFC-islandoraID: pl-cz:38806
!!!URL-pdf-islandora: https://repozytorium.nifc.pl/islandora/object/pl-cz%3A38806/datastream/PDF/view
!!!URL-scan: https://polish.musicsources.pl/pl/lokalizacje/galeria/rekopisy/6943/1 @EN{Scan on Polish Music Sources Website} @PL{Skany w portalu Dziedzictwo Muzyki Polskiej w otwartym dostępie}
!!!ONB-nifc: UWAGA: części Mszy: Kyrie, Gloria, Credo, Et incarnatus, Et resurrexit, Sanctus, Pleni sunt, Benedictus, Agnus Dei, Dona nobis
!!!AIN: 1 alto 1 bass 2 clars 2 cor 1 organ 1 soprn 1 tenor 1 viola 2 violn
!!!OMD:
!!!OMD-mod: Allegro moderato
!!!key: F
**kern	**fba	**dynam	**kern	**dynam	**kern	**dynam	**kern	**dynam	**kern	**text	**dynam	**kern	**text	**dynam	**kern	**text	**dynam	**kern	**text	**dynam	**kern	**dynam	**kern	**dynam	**kern	**dynam	**kern	**dynam
*	*	*	*group4	*	*group4	*	*group4	*	*group3	*	*	*group3	*	*	*group3	*	*	*group3	*	*	*group2	*	*group2	*	*group1	*	*group1	*
*part12	*part12	*part12	*part11	*part11	*part10	*part10	*part9	*part9	*part8	*part8	*part8	*part7	*part7	*part7	*part6	*part6	*part6	*part5	*part5	*part5	*part4	*part4	*part3	*part3	*part2	*part2	*part1	*part1
*staff12	*	*	*staff11	*	*staff10	*	*staff9	*	*staff8	*staff8	*	*staff7	*staff7	*	*staff6	*staff6	*	*staff5	*staff5	*	*staff4	*	*staff3	*	*staff2	*	*staff1	*
*I"Organo.	*	*	*I"Alto Viola	*	*I"Violino Secondo.	*	*I"Violino Primo.	*	*I"Basso.	*	*	*I"Tenore.	*	*	*I"Alto.	*	*	*I"Canto.	*	*	*I"Corno Secondo in F.	*	*I"Corno Primo in F.	*	*I"Clarinetto Secondo in B.	*	*I"Clarinetto Primo. in B.	*
*mI"Organo	*	*	*mI"Viola	*	*mI"Violino II	*	*mI"Violino I	*	*mI"Basso	*	*	*mI"Tenore	*	*	*mI"Alto	*	*	*mI"Soprano	*	*	*mI"Corno II in F	*	*mI"Corno I in F	*	*mI"Clarinetto II in Bb	*	*mI"Clarinetto I in Bb	*
*I'org	*	*	*I'a-vla	*	*I'vl 2	*	*I'vl 1	*	*I'B	*	*	*I'T	*	*	*I'A	*	*	*I'S	*	*	*I'cor 2 in F	*	*I'cor 1 in F	*	*I'cl 2 in Bb	*	*I'cl 1 in Bb	*
*	*	*	*mI'vla	*	*	*	*	*	*	*	*	*	*	*	*	*	*	*	*	*	*	*	*	*	*	*	*	*
*Iorgan	*	*	*Iviola	*	*Ivioln	*	*Ivioln	*	*Ibass	*	*	*Itenor	*	*	*Ialto	*	*	*Isoprn	*	*	*Icor	*	*Icor	*	*Iclars	*	*Iclars	*
*ICklav	*	*	*ICstr	*	*ICstr	*	*ICstr	*	*ICvox	*	*	*ICvox	*	*	*ICvox	*	*	*ICvox	*	*	*ICbras	*	*ICbras	*	*ICww	*	*ICww	*
*IGcont	*	*	*	*	*	*	*	*	*IGcoro	*	*	*IGcoro	*	*	*IGcoro	*	*	*IGcoro	*	*	*	*	*	*	*	*	*	*
*clefF4	*	*	*clefC3	*	*clefG2	*	*clefG2	*	*clefF4	*	*	*clefC4	*	*	*clefC3	*	*	*clefC1	*	*	*clefG2	*	*clefG2	*	*clefG2	*	*clefG2	*
*	*	*	*	*	*	*	*	*	*	*	*	*mclefGv2	*	*	*mclefG2	*	*	*mclefG2	*	*	*	*	*	*	*	*	*	*
*	*	*	*	*	*	*	*	*	*	*	*	*	*	*	*	*	*	*	*	*	*ITrd4c7	*	*ITrd4c7	*	*ITrd1c2	*	*ITrd1c2	*
*k[b-]	*	*	*k[b-]	*	*k[b-]	*	*k[b-]	*	*k[b-]	*	*	*k[b-]	*	*	*k[b-]	*	*	*k[b-]	*	*	*k[b-]	*	*k[b-]	*	*k[b-]	*	*k[b-]	*
*F:	*	*	*F:	*	*F:	*	*F:	*	*F:	*	*	*F:	*	*	*F:	*	*	*F:	*	*	*F:	*	*F:	*	*F:	*	*F:	*
*M3/4	*	*	*M3/4	*	*M3/4	*	*M3/4	*	*M3/4	*	*	*M3/4	*	*	*M3/4	*	*	*M3/4	*	*	*M3/4	*	*M3/4	*	*M3/4	*	*M3/4	*
=1	=1	=1	=1	=1	=1	=1	=1	=1	=1	=1	=1	=1	=1	=1	=1	=1	=1	=1	=1	=1	=1	=1	=1	=1	=1	=1	=1	=1
*	*	*	*	*	*	*	*	*	*2\right	*	*	*2\right	*	*	*2\right	*	*	*2\right	*	*	*	*	*	*	*	*	*	*
!	!	!	!	!	!	!	!	!	!	!	!	!	!	!	!	!	!	!	!	!LO:MO:mod=!LO&colon;DY&colon;ed=brack	!	!	!	!LO:MO:mod=!LO&colon;DY&colon;ed=brack	!	!	!	!
!	!	!	!	!	!	!	!LO:TX:a:i:t=Tutti:mod=	!	!LO:TX:a:i:t=Tu&colon;:mod=	!	!	!LO:TX:a:i:t=Tutti:mod=	!	!	!	!	!	!	!	!null	!	!	!	!null	!	!	!	!
!LO:TX:a:B:t=Allo Moderato.:mod=	!	!	!LO:TX:a:B:t=Allo Moderato.:mod=	!	!LO:TX:a:B:t=Allo Moderato.:mod=	!	!LO:TX:a:B:t=Allo Moderato.:mod=	!	!LO:TX:a:B:t=Allo moderato:mod=	!	!	!LO:TX:a:B:t=Allo moderato.:mod=	!	!LO:DY:a	!LO:TX:a:B:t=allo moderato.:mod=	!	!LO:DY:a:t=for	!LO:TX:a:B:t=allo moderato.:mod=	!	!LO:MO:null:mod=f	!LO:TX:a:B:t=Allo Moderato.:mod=	!	!LO:TX:a:B:t=Moderato.:mod=	!LO:MO:null:mod=f	!LO:TX:a:B:t=Allo moderato.:mod=	!LO:DY:t=for	!LO:TX:a:B:t=Allo moderato.:mod=	!
4FF/	.	f	4f 4c\	f	4a 4f\	f	4ff 4a\	f	2.F\	Cre-	f	2.c\	Cre-	f	2.a\	Cre-	f	2.ff\	Cre-	.	4A/	f	4f\	.	4a\	f	4ff\	f
4AA/	.	.	4f 4c\	.	4a 4f\	.	4ff 4a\	.	.	.	.	.	.	.	.	.	.	.	.	.	4A/	.	4f\	.	4a\	.	4ff\	.
4C/	.	.	4f 4c\	.	4a 4f\	.	4ff 4a\	.	.	.	.	.	.	.	.	.	.	.	.	.	4A/	.	4f\	.	4a\	.	4ff\	.
=2	=2	=2	=2	=2	=2	=2	=2	=2	=2	=2	=2	=2	=2	=2	=2	=2	=2	=2	=2	=2	=2	=2	=2	=2	=2	=2	=2	=2
4F\	.	.	4f 4c\	.	4a 4f\	.	8ffL 8a\	.	4F\	-do	.	4c\	-do	.	4a\	-do	.	4ff\	-do	.	4A/	.	4f\	.	4a\	.	4ff\	.
.	.	.	.	.	.	.	8cc\	.	.	.	.	.	.	.	.	.	.	.	.	.	.	.	.	.	.	.	.	.
4r	.	.	4r	.	4r	.	8dd\	.	4r	.	.	4r	.	.	4r	.	.	4r	.	.	4r	.	4r	.	4r	.	4r	.
.	.	.	.	.	.	.	8ee\	.	.	.	.	.	.	.	.	.	.	.	.	.	.	.	.	.	.	.	.	.
4r	.	.	4r	.	4r	.	8ff\	.	4r	.	.	4r	.	.	4r	.	.	4r	.	.	4r	.	4r	.	4r	.	4r	.
.	.	.	.	.	.	.	8gg\J	.	.	.	.	.	.	.	.	.	.	.	.	.	.	.	.	.	.	.	.	.
=3	=3	=3	=3	=3	=3	=3	=3	=3	=3	=3	=3	=3	=3	=3	=3	=3	=3	=3	=3	=3	=3	=3	=3	=3	=3	=3	=3	=3
4D\	5	.	4d 4D/	.	4a 4f\	.	4aa 4a\	.	2.D\	Cre-	.	2.d\	Cre-	.	2.a\	Cre-	.	2.ff\	Cre-	.	4f\	.	4a\	.	4ff\	.	4aa\	.
4F\	.	.	4d 4D/	.	4a 4f\	.	4aa 4a\	.	.	.	.	.	.	.	.	.	.	.	.	.	4f\	.	4a\	.	4ff\	.	4aa\	.
4A\	.	.	4d 4D/	.	4a 4f\	.	4aa 4a\	.	.	.	.	.	.	.	.	.	.	.	.	.	4f\	.	4a\	.	4ff\	.	4aa\	.
=4	=4	=4	=4	=4	=4	=4	=4	=4	=4	=4	=4	=4	=4	=4	=4	=4	=4	=4	=4	=4	=4	=4	=4	=4	=4	=4	=4	=4
4d\	.	.	4d 4D/	.	4a 4f\	.	8aa\L	.	4D\	-do	.	4d\	-do	.	4a\	-do	.	4ff\	-do	.	4f\	.	4a\	.	4ff\	.	4aa\	.
.	.	.	.	.	.	.	8gg#X\	.	.	.	.	.	.	.	.	.	.	.	.	.	.	.	.	.	.	.	.	.
4r	.	.	4r	.	4r	.	8aa\	.	4r	.	.	4r	.	.	4r	.	.	4r	.	.	4r	.	4r	.	4r	.	4r	.
.	.	.	.	.	.	.	8ee\	.	.	.	.	.	.	.	.	.	.	.	.	.	.	.	.	.	.	.	.	.
4r	.	.	4r	.	4r	.	8ff\	.	4r	.	.	4r	.	.	4r	.	.	4r	.	.	4r	.	4r	.	4r	.	4r	.
.	.	.	.	.	.	.	8dd\J	.	.	.	.	.	.	.	.	.	.	.	.	.	.	.	.	.	.	.	.	.
!	!	!	!	!	!	!	!LO:LB:g=original	!	!	!	!	!	!	!	!	!	!	!	!	!	!	!	!	!	!	!	!	!
=5	=5	=5	=5	=5	=5	=5	=5	=5	=5	=5	=5	=5	=5	=5	=5	=5	=5	=5	=5	=5	=5	=5	=5	=5	=5	=5	=5	=5
4D\	6_ n4_ 2_	.	4g 4G\	.	4bn 4f\	.	4bbny 4bn\	.	2.D\	Cre-	.	2.G/	Cre-	.	2.bn\	Cre-	.	(2ff\	Cre-	.	4g\	.	4g\	.	4ff\	.	4gg\	.
4D\	.	.	4g 4G\	.	4b 4f\	.	4bb 4b\	.	.	.	.	.	.	.	.	.	.	.	.	.	4g\	.	4g\	.	4ff\	.	4gg\	.
4D\	.	.	4g 4G\	.	4b 4f\	.	4bb 4b\	.	.	.	.	.	.	.	.	.	.	4dd\)	.	.	4g\	.	4g\	.	4ff\	.	4gg\	.
=6	=6	=6	=6	=6	=6	=6	=6	=6	=6	=6	=6	=6	=6	=6	=6	=6	=6	=6	=6	=6	=6	=6	=6	=6	=6	=6	=6	=6
!	!	!	!	!	!LO:SIC:v:s=4b 4f\	!	!	!	!	!	!	!	!	!	!	!	!	!	!	!	!	!	!	!	!	!	!	!
4G\	7 n	.	4d/	.	4b- 4f\	.	8ddd\L	.	4G\	-do	.	4d\	-do	.	4f\	-do	.	4bn\	-do	.	4g\	.	4g\	.	4ff\	.	4bbX 4gg\	.
.	.	.	.	.	.	.	8ccc\	.	.	.	.	.	.	.	.	.	.	.	.	.	.	.	.	.	.	.	.	.
4r	.	.	4r	.	4r	.	8bbn\	.	4r	.	.	4r	.	.	4r	.	.	4r	.	.	4r	.	4r	.	4r	.	4r	.
.	.	.	.	.	.	.	8aa\	.	.	.	.	.	.	.	.	.	.	.	.	.	.	.	.	.	.	.	.	.
4r	.	.	4r	.	4r	.	8gg\	.	4r	.	.	4r	.	.	4r	.	.	4r	.	.	4r	.	4r	.	4r	.	4r	.
.	.	.	.	.	.	.	8ff\J	.	.	.	.	.	.	.	.	.	.	.	.	.	.	.	.	.	.	.	.	.
!LO:LB:g=original	!	!	!	!	!LO:LB:g=original	!	!	!	!	!	!	!	!	!	!	!	!	!LO:LB:g=original	!	!	!	!	!LO:LB:g=original	!	!	!	!LO:LB:g=original	!
=7	=7	=7	=7	=7	=7	=7	=7	=7	=7	=7	=7	=7	=7	=7	=7	=7	=7	=7	=7	=7	=7	=7	=7	=7	=7	=7	=7	=7
*tremolo	*	*	*	*	*	*	*	*	*	*	*	*	*	*	*	*	*	*	*	*	*	*	*2\right	*	*	*	*	*
!	!	!LO:MO:mod=.	!	!	!	!	!LO:SIC:s=8eeL	!	!	!	!	!	!	!	!	!	!	!	!	!	!	!	!LO:SIC:v:s=2.g	!	!LO:SIC:v:s=4ee	!	!	!
8C/L	8	f	8G/L	.	16e\LL	.	(8ee\L	.	4C\	in	.	4G\	in	.	4e\	in	.	4cc\	in	.	2.c/	.	2.f\	.	4dd\	.	4ccc\	.
.	.	.	.	.	16e\	.	.	.	.	.	.	.	.	.	.	.	.	.	.	.	.	.	.	.	.	.	.	.
!	!	!	!	!	!	!	!LO:SIC:s=8gg	!	!	!	!	!	!	!	!	!	!	!	!	!	!	!	!	!	!	!	!	!
8C/	.	.	8E/	.	16g\	.	8gg\)	.	.	.	.	.	.	.	.	.	.	.	.	.	.	.	.	.	.	.	.	.
.	.	.	.	.	16g\JJ	.	.	.	.	.	.	.	.	.	.	.	.	.	.	.	.	.	.	.	.	.	.	.
*	*	*	*	*	*	*	*	*	*	*	*	*	*	*	*	*	*	*	*	*	*	*	*	*	*	*	*2\right	*
8C/	6	.	8G/	.	16e\LL	.	8cc\	.	4C\	u-	.	4G\	u-	.	4e\	u-	.	4cc\	u-	.	.	.	.	.	4g\	.	2ee\	.
.	.	.	.	.	16e\	.	.	.	.	.	.	.	.	.	.	.	.	.	.	.	.	.	.	.	.	.	.	.
8C/	.	.	8E/	.	16g\	.	8cc\	.	.	.	.	.	.	.	.	.	.	.	.	.	.	.	.	.	.	.	.	.
.	.	.	.	.	16g\JJ	.	.	.	.	.	.	.	.	.	.	.	.	.	.	.	.	.	.	.	.	.	.	.
8C/	7 5	.	8G/	.	16b-\LL	.	8dd\	.	4C\	-num	.	4G\	-num	.	4g\	-num	.	4cc\	-num	.	.	.	.	.	4b-\	.	.	.
.	.	.	.	.	16b-\	.	.	.	.	.	.	.	.	.	.	.	.	.	.	.	.	.	.	.	.	.	.	.
8C/J	.	.	8F/J	.	16g\	.	8ee\J	.	.	.	.	.	.	.	.	.	.	.	.	.	.	.	.	.	.	.	.	.
.	.	.	.	.	16g\JJ	.	.	.	.	.	.	.	.	.	.	.	.	.	.	.	.	.	.	.	.	.	.	.
!	!	!	!LO:LB:g=original	!	!	!	!	!	!LO:LB:g=original	!	!	!LO:LB:g=original	!	!	!LO:LB:g=original	!	!	!	!	!	!LO:LB:g=original	!	!	!	!	!	!	!
=8	=8	=8	=8	=8	=8	=8	=8	=8	=8	=8	=8	=8	=8	=8	=8	=8	=8	=8	=8	=8	=8	=8	=8	=8	=8	=8	=8	=8
.	.	.	.	.	.	.	8qgg/	.	.	.	.	.	.	.	.	.	.	.	.	.	.	.	.	.	.	.	.	.
*	*	*	*	*	*	*	*	*	*	*	*	*	*	*	*	*	*	*	*	*	*2\right	*	*	*	*	*	*	*
!	!	!	!	!	!	!	!	!	!	!	!	!LO:SIC:s=(4A	!	!	!	!	!	!	!	!	!	!	!LO:N:vis=2.	!	!	!	!	!
8C/L	6 4	.	8c\L	.	16aLL 16f\	.	(16ff\LL	.	2.C/	De-	.	4A\	De-	.	2.f\	De-	.	(4a\	De-	.	2f\	.	2a\	.	4a\	.	4ff\	.
.	.	.	.	.	16a 16f\	.	16ee\	.	.	.	.	.	.	.	.	.	.	.	.	.	.	.	.	.	.	.	.	.
!	!	!	!	!	!	!	!LO:SIC:s=16ff	!	!	!	!	!	!	!	!	!	!	!	!	!	!	!	!	!	!	!	!	!
8C/	.	.	8A\	.	16a 16f\	.	16ff\)	.	.	.	.	.	.	.	.	.	.	.	.	.	.	.	.	.	.	.	.	.
!	!	!	!	!	!	!	!LO:SIC:s=16ggJJ)	!	!	!	!	!	!	!	!	!	!	!	!	!	!	!	!	!	!	!	!	!
.	.	.	.	.	16aJJ 16f\	.	16gg'\JJ	.	.	.	.	.	.	.	.	.	.	.	.	.	.	.	.	.	.	.	.	.
!	!	!	!	!	!	!	!	!	!	!	!	!LO:SIC:s=2d)	!LO:MO:mod=.	!	!	!	!	!	!	!	!	!	!	!	!	!	!	!
8C/	.	.	8d\	.	16f\LL	.	8aa\L	.	.	.	.	(2d\	-um	.	.	.	.	2bn\)	.	.	.	.	.	.	4.bX\	.	4.gg\	.
.	.	.	.	.	16bn\	.	.	.	.	.	.	.	.	.	.	.	.	.	.	.	.	.	.	.	.	.	.	.
8C/	.	.	8Bn\	.	16f\	.	8dd\	.	.	.	.	.	.	.	.	.	.	.	.	.	.	.	.	.	.	.	.	.
.	.	.	.	.	16b\JJ	.	.	.	.	.	.	.	.	.	.	.	.	.	.	.	.	.	.	.	.	.	.	.
*	*	*	*	*	*rep	*	*	*	*	*	*	*	*	*	*	*	*	*	*	*	*	*	*	*	*	*	*	*
8C/	n7	.	8d\	.	16f\LL	.	8ee\	.	.	.	.	.	.	.	.	.	.	.	.	.	4f\	.	4g\	.	.	.	.	.
.	.	.	.	.	16b\	.	.	.	.	.	.	.	.	.	.	.	.	.	.	.	.	.	.	.	.	.	.	.
8C/J	.	.	8B\J	.	16f\	.	8ff\J	.	.	.	.	.	.	.	.	.	.	.	.	.	.	.	.	.	8dd\	.	8ff\	.
.	.	.	.	.	16b\JJ	.	.	.	.	.	.	.	.	.	.	.	.	.	.	.	.	.	.	.	.	.	.	.
*Xtremolo	*	*	*	*	*Xrep	*	*	*	*	*	*	*	*	*	*	*	*	*	*	*	*	*	*	*	*	*	*	*
!	!	!	!	!	!	!	!	!	!	!	!	!	!	!	!	!	!	!	!	!	!	!	!	!	!LO:LB:g=original	!	!	!
=9	=9	=9	=9	=9	=9	=9	=9	=9	=9	=9	=9	=9	=9	=9	=9	=9	=9	=9	=9	=9	=9	=9	=9	=9	=9	=9	=9	=9
*	*	*	*	*	*	*	*	*	*	*	*	*	*	*	*	*	*	*	*	*	*	*	*	*	*2\right	*	*	*
!	!	!	!	!	!	!	!	!	!	!	!	!	!LO:MO:null:mod=-um	!	!	!	!	!	!	!	!	!	!	!	!	!	!	!
4C/	.	.	8c\	.	16e\LL	.	8ee\	.	4C/	-um	.	4c\)	.	.	4e\	-um	.	4cc\	-um	.	4c/	.	4g\	.	2.cc\	.	4ee\	.
.	.	.	.	.	16e\	.	.	.	.	.	.	.	.	.	.	.	.	.	.	.	.	.	.	.	.	.	.	.
.	.	.	4cc\	.	16g\	.	4ccc\	.	.	.	.	.	.	.	.	.	.	.	.	.	.	.	.	.	.	.	.	.
.	.	.	.	.	16g\JJ	.	.	.	.	.	.	.	.	.	.	.	.	.	.	.	.	.	.	.	.	.	.	.
8r	.	.	.	.	16e\LL	.	.	.	8r	.	.	4c\	Pa-	.	4e\	Pa-	.	4cc\	Pa-	.	8r	.	8r	.	.	.	8r	.
.	.	.	.	.	16e\	.	.	.	.	.	.	.	.	.	.	.	.	.	.	.	.	.	.	.	.	.	.	.
8C/L	.	.	4cc\	.	16f\	.	4ccc\	.	8C/	Pa-	.	.	.	.	.	.	.	.	.	.	8c/L	.	8g\L	.	.	.	8ee\L	.
.	.	.	.	.	16f\JJ	.	.	.	.	.	.	.	.	.	.	.	.	.	.	.	.	.	.	.	.	.	.	.
8D/	.	.	.	.	16f\LL	.	.	.	8D\	-trem	.	8c\	-trem	.	8f\	-trem	.	8cc\	-trem	.	8f/	.	8f\	.	.	.	8ff\	.
.	.	.	.	.	16f\	.	.	.	.	.	.	.	.	.	.	.	.	.	.	.	.	.	.	.	.	.	.	.
!	!	!	!	!	!	!	!	!	!	!LO:MO:mod=om-	!	!	!	!	!	!	!	!	!	!	!	!	!	!	!	!	!	!
8E/J	.	.	8b-\	.	16g\	.	8ccc\	.	8E\	Om-	.	8c\	om-	.	8g\	om-	.	8cc\	om-	.	8c/J	.	8g\J	.	.	.	8gg\J	.
.	.	.	.	.	16g\JJ	.	.	.	.	.	.	.	.	.	.	.	.	.	.	.	.	.	.	.	.	.	.	.
!	!	!	!	!	!	!	!LO:LB:g=original	!	!	!	!	!	!	!	!	!	!	!	!	!	!	!	!	!	!	!	!	!
=10	=10	=10	=10	=10	=10	=10	=10	=10	=10	=10	=10	=10	=10	=10	=10	=10	=10	=10	=10	=10	=10	=10	=10	=10	=10	=10	=10	=10
8F\L	.	.	8a\L	.	16a\LL	.	8ccc\L	.	8F\	-ni-	.	8c\	-ni-	.	8a\	-ni-	.	8cc\	-ni-	.	8f/L	.	8a\L	.	4.cc\	.	8aa\L	.
.	.	.	.	.	16a\	.	.	.	.	.	.	.	.	.	.	.	.	.	.	.	.	.	.	.	.	.	.	.
8G\	6 4	.	8g\	.	16cc\	.	8ee\	.	8G\	-po-	.	8c\	-po-	.	8g\	-po-	.	8cc\	-po-	.	8c/J	.	8g\J	.	.	.	8ee\J	.
.	.	.	.	.	16cc\JJ	.	.	.	.	.	.	.	.	.	.	.	.	.	.	.	.	.	.	.	.	.	.	.
!	!	!	!	!	!	!	!	!	!LO:SIC:s=8AL	!	!	!	!	!	!	!	!	!	!	!	!	!	!	!	!	!	!	!
8A\	6	.	8f\	.	16cc\LL	.	8ff\	.	8A\	-ten-	.	8c\L	-ten-	.	4f\	-ten-	.	8cc\L	-ten-	.	4f\	.	4f\	.	.	.	4ff\	.
.	.	.	.	.	16cc\	.	.	.	.	.	.	.	.	.	.	.	.	.	.	.	.	.	.	.	.	.	.	.
!	!	!	!	!	!	!	!	!	!LO:SIC:s=8BJ	!LO:MO:mod=.	!	!	!	!	!	!	!	!	!	!	!	!	!	!	!	!	!	!
8Bn\	6	.	8e\	.	16g\	.	8dd\	.	8Bn\	-tem	.	8Bn\J	.	.	.	.	.	8dd\J	.	.	.	.	.	.	8dd\L	.	.	.
.	.	.	.	.	16g\JJ	.	.	.	.	.	.	.	.	.	.	.	.	.	.	.	.	.	.	.	.	.	.	.
!	!	!	!	!	!	!	!	!	!	!LO:MO:mod=-tem	!	!	!	!	!	!	!	!	!	!	!	!	!	!	!	!	!	!
8c\	5	.	8c\	.	16g\LL	.	8gg\	.	8c\	fa-	.	8c\	-tem	.	8f\	-tem	.	8cc\	-tem	.	4g\	.	4g\	.	8g\	.	8gg\L	.
.	.	.	.	.	16g\	.	.	.	.	.	.	.	.	.	.	.	.	.	.	.	.	.	.	.	.	.	.	.
!	!	!	!	!	!	!	!	!	!	!LO:MO:null:mod=fac-	!	!	!	!	!	!LO:MO:mod=fac-	!	!	!	!	!	!	!	!	!	!	!	!
8d\J	6 n	.	8d\J	.	16g\	.	8ff\J	.	8d\	.	.	8d\	fac-	.	8f\	fa-	.	8bn\	fac-	.	.	.	.	.	8bX\J	.	8ff\J	.
.	.	.	.	.	16g\JJ	.	.	.	.	.	.	.	.	.	.	.	.	.	.	.	.	.	.	.	.	.	.	.
=11	=11	=11	=11	=11	=11	=11	=11	=11	=11	=11	=11	=11	=11	=11	=11	=11	=11	=11	=11	=11	=11	=11	=11	=11	=11	=11	=11	=11
!LO:TX:t=P:problem=mixed beam	!	!	!	!	!	!	!	!	!	!LO:MO:mod=-to-	!	!	!	!	!	!LO:MO:mod=-to-	!	!	!	!	!	!	!	!	!	!	!	!
8c\L	.	.	8e\L	.	16g\LL	.	8ee\L	.	8c\	-cto-	.	8c\	-to-	.	8e\	-cto-	.	8cc\	-to-	.	4c/	.	4g\	.	4cc\	.	8ee\L	.
.	.	.	.	.	16g\	.	.	.	.	.	.	.	.	.	.	.	.	.	.	.	.	.	.	.	.	.	.	.
8C/	.	.	8f\	.	16f\	.	8ff\J	.	8c\	-rem	.	8c\	-rem	.	8f\	-rem	.	8cc\	-rem	.	.	.	.	.	.	.	8ff\J	.
.	.	.	.	.	16f\JJ	.	.	.	.	.	.	.	.	.	.	.	.	.	.	.	.	.	.	.	.	.	.	.
!	!	!	!	!	!	!	!	!	!	!LO:MO:mod=cae-	!	!	!LO:MO:mod=cae-	!	!	!LO:MO:mod=cae-	!	!	!LO:MO:mod=cae-	!	!	!	!	!	!	!	!	!
8c\	.	.	8g\	.	16e\LL	.	4.gg\	sf	4c\	Cae-	.	4c\	Cae-	.	4g\	Cae-	.	4ee\	Cae-	.	4r	.	4r	.	4.ee\	.	4.gg\	.
.	.	.	.	.	16e\	.	.	.	.	.	.	.	.	.	.	.	.	.	.	.	.	.	.	.	.	.	.	.
8d\	3	.	8g\	.	16f\	.	.	.	.	.	.	.	.	.	.	.	.	.	.	.	.	.	.	.	.	.	.	.
.	.	.	.	.	16f\JJ	.	.	.	.	.	.	.	.	.	.	.	.	.	.	.	.	.	.	.	.	.	.	.
!	!	!	!	!	!LO:LB:g=original	!	!	!	!	!	!	!	!	!	!	!	!	!LO:SIC:s=8ee	!	!	!	!	!	!	!	!	!	!
8c\	5	.	8g\	.	16e/LL	.	.	.	8Bn\	-li	.	8e\	-li	.	8g\	-li	.	8ee\L	-li	.	4r	.	4r	.	.	.	.	.
.	.	.	.	.	16e/	.	.	.	.	.	.	.	.	.	.	.	.	.	.	.	.	.	.	.	.	.	.	.
!	!	!	!	!	!	!	!	!	!	!	!	!	!	!	!	!	!	!LO:SIC:s=8dd	!	!	!	!	!	!	!	!	!	!
8Bn\J	6 3	.	8g#X\J	.	16d/	.	8gg#X\	.	8B\	et	.	8e\	et	.	8g#X\	et	.	8dd\J	et	.	.	.	.	.	8dd\	.	8gg#X\	.
.	.	.	.	.	16d/JJ	.	.	.	.	.	.	.	.	.	.	.	.	.	.	.	.	.	.	.	.	.	.	.
!	!	!	!	!	!	!	!	!	!LO:LB:g=original	!	!	!	!	!	!	!	!	!LO:LB:g=original	!	!	!	!	!	!	!	!	!	!
=12	=12	=12	=12	=12	=12	=12	=12	=12	=12	=12	=12	=12	=12	=12	=12	=12	=12	=12	=12	=12	=12	=12	=12	=12	=12	=12	=12	=12
!	!	!	!	!	!	!	!LO:TX:t=P:problem=mixed beam	!	!	!	!LO:SIC:s=8eL	!	!	!	!	!	!	!	!	!	!	!	!	!	!	!	!	!
8A\L	.	.	8a\L	.	16c#X/LL	.	8aa\L	.	8A\L	ter-	.	(8e\L	ter-	.	4a\	ter-	.	8cc#X\L	ter-	.	4A/	.	4a\	.	8cc#X\L	.	4aa\	.
.	.	.	.	.	16c#/	.	.	.	.	.	.	.	.	.	.	.	.	.	.	.	.	.	.	.	.	.	.	.
*	*	*	*	*	*	*	*	*	*	*	*	*custos	*	*	*	*	*	*	*	*	*	*	*	*	*	*	*	*
!	!	!	!	!	!	!	!	!	!	!	!	!LO:SIC:v:s=8dJ	!	!	!	!	!	!	!	!	!	!	!	!	!	!	!	!
!	!	!	!	!	!	!	!	!	!	!	!	!LO:TX:t=P:problem=wszystkie custos użyte jako łamanie pięciolinii	!	!	!	!	!	!	!	!	!	!	!	!	!	!	!	!
8Bn\J	.	.	8a\	.	16d/	.	8a/J	.	8Bn\J	.	.	8d#X\J)	.	.	.	.	.	8dd\J	.	.	.	.	.	.	8dd\J	.	.	.
.	.	.	.	.	16d/JJ	.	.	.	.	.	.	.	.	.	.	.	.	.	.	.	.	.	.	.	.	.	.	.
!	!	!	!	!	!	!	!	!	!	!	!	!LO:LB:g=original	!	!	!	!	!	!	!	!	!	!	!	!	!	!	!	!
8c#X\L	.	.	8a\	.	16e/LL	.	4.aa\	sf	4c#X\	-rae	.	4c#X\	-rae	.	4a\	-rae	.	4ee\	-rae	.	4A/	.	4a\	.	4ee\	.	4.aa\	.
.	.	.	.	.	16a/	.	.	.	.	.	.	.	.	.	.	.	.	.	.	.	.	.	.	.	.	.	.	.
8A\	.	.	8c#X\	.	16a/	.	.	.	.	.	.	.	.	.	.	.	.	.	.	.	.	.	.	.	.	.	.	.
.	.	.	.	.	16a/JJ	.	.	.	.	.	.	.	.	.	.	.	.	.	.	.	.	.	.	.	.	.	.	.
*	*	*	*	*	*tremolo	*	*	*	*	*	*	*	*	*	*	*	*	*	*	*	*	*	*	*	*	*	*	*
8B\	.	.	8d\	.	16a/LL	.	.	.	8A\	vi-	.	8c#\	vi-	.	8a\	vi-	.	8ee\	vi-	.	4A/	.	4a\	.	4a\	.	.	.
.	.	.	.	.	16a/	.	.	.	.	.	.	.	.	.	.	.	.	.	.	.	.	.	.	.	.	.	.	.
8c#\J	.	.	8e\J	.	16a/	.	8ggn\	.	8A\	-si-	.	8c#\	-si-	.	8gn\	-si-	.	8ee\	-si-	.	.	.	.	.	.	.	8ggn\	.
.	.	.	.	.	16a/JJ	.	.	.	.	.	.	.	.	.	.	.	.	.	.	.	.	.	.	.	.	.	.	.
!	!	!	!	!	!	!	!	!	!	!	!	!	!	!	!LO:LB:g=original	!	!	!	!	!	!	!	!	!	!	!	!	!
=13	=13	=13	=13	=13	=13	=13	=13	=13	=13	=13	=13	=13	=13	=13	=13	=13	=13	=13	=13	=13	=13	=13	=13	=13	=13	=13	=13	=13
!	!	!	!LO:TX:t=P:problem=mixed beam	!	!	!	!LO:TX:t=P:problem=mixed beam	!	!	!	!	!	!	!	!	!	!	!	!	!	!	!	!	!	!	!	!	!
8d\L	n	.	8f\L	.	16a/LL	.	8ff\L	.	4.d\	-bi-	.	4.A\	-bil-	.	4.f\	-bi-	.	4.dd\	-bi-	.	4A/	.	4a\	.	4a\	.	4ff\	.
.	.	.	.	.	16a/	.	.	.	.	.	.	.	.	.	.	.	.	.	.	.	.	.	.	.	.	.	.	.
8D\	.	.	8F/J	.	16a/	.	8f/J	.	.	.	.	.	.	.	.	.	.	.	.	.	.	.	.	.	.	.	.	.
.	.	.	.	.	16a/JJ	.	.	.	.	.	.	.	.	.	.	.	.	.	.	.	.	.	.	.	.	.	.	.
8d\	.	.	8f\L	.	16a/LL	.	4.ff\	sf	.	.	.	.	.	.	.	.	.	.	.	.	4r	.	4r	.	4.a\	.	4.ff\	.
.	.	.	.	.	16a/	.	.	.	.	.	.	.	.	.	.	.	.	.	.	.	.	.	.	.	.	.	.	.
!	!	!	!	!	!	!	!	!	!	!	!	!	!	!	!	!LO:MO:mod=-li-	!	!	!LO:MO:mod=-li-	!	!	!	!	!	!	!	!	!
8e\	.	.	8e\	.	16a/	.	.	.	8d\	-li-	.	8A\	-li-	.	8f\	-lli-	.	8dd\	-lli-	.	.	.	.	.	.	.	.	.
.	.	.	.	.	16a/JJ	.	.	.	.	.	.	.	.	.	.	.	.	.	.	.	.	.	.	.	.	.	.	.
8d\	.	.	8f\	.	16a/LL	.	.	.	4cn\	-um	.	4A\	-um	.	8f\L	-um	.	4dd\	-um	.	4r	.	4r	.	.	.	.	.
.	.	.	.	.	16a/	.	.	.	.	.	.	.	.	.	.	.	.	.	.	.	.	.	.	.	.	.	.	.
8c\J	4 2	.	8f#X\J	.	16a/	.	8ff#X\	.	.	.	.	.	.	.	8f#X\J	.	.	.	.	.	.	.	.	.	8dd\	.	8ff#X\	.
.	.	.	.	.	16a/JJ	.	.	.	.	.	.	.	.	.	.	.	.	.	.	.	.	.	.	.	.	.	.	.
*	*	*	*	*	*Xtremolo	*	*	*	*	*	*	*	*	*	*	*	*	*	*	*	*	*	*	*	*	*	*	*
!LO:LB:g=original	!	!	!LO:LB:g=original	!	!	!	!	!	!	!	!	!	!	!	!	!	!	!	!	!	!	!	!	!	!	!	!LO:LB:g=original	!
=14	=14	=14	=14	=14	=14	=14	=14	=14	=14	=14	=14	=14	=14	=14	=14	=14	=14	=14	=14	=14	=14	=14	=14	=14	=14	=14	=14	=14
!	!	!	!LO:TX:t=P:problem=mixed beam	!	!	!	!LO:TX:t=P:problem=mixed beam	!	!	!LO:MO:mod=om-	!	!	!LO:MO:mod=om-	!	!	!LO:MO:mod=om-	!	!	!LO:MO:mod=om-	!	!	!	!	!	!	!	!	!
8Bn\L	6	.	8g\L	.	16dd\LL	.	8gg\L	.	4Bn\	Om-	.	4d\	Om-	.	4g\	O-	.	4dd\	O-	.	4g\	.	4g\	.	4dd\	.	4gg\	.
.	.	.	.	.	16dd\	.	.	.	.	.	.	.	.	.	.	.	.	.	.	.	.	.	.	.	.	.	.	.
8A\	.	.	8g\	.	16cc#X\	.	8g/J	.	.	.	.	.	.	.	.	.	.	.	.	.	.	.	.	.	.	.	.	.
.	.	.	.	.	16cc#\JJ	.	.	.	.	.	.	.	.	.	.	.	.	.	.	.	.	.	.	.	.	.	.	.
!	!	!	!	!	!	!	!	!	!	!	!	!	!	!	!	!LO:MO:mod=-ni-	!	!	!LO:MO:mod=-ni-	!	!	!	!	!	!	!	!	!
8B\	.	.	8g\	.	16dd\LL	.	4.gg\	sf	8B\	-ni-	.	8d\	-ni-	.	8g\	-mni-	.	8g\	-mni-	.	4g\	.	4g\	.	2g/	.	4.gg\	.
.	.	.	.	.	16dd\	.	.	.	.	.	.	.	.	.	.	.	.	.	.	.	.	.	.	.	.	.	.	.
8G\	.	.	8G/J	.	16bn\	.	.	.	8B\	-um	.	8d\	-um	.	8g\	-um	.	8g\	-um	.	.	.	.	.	.	.	.	.
.	.	.	.	.	16b\JJ	.	.	.	.	.	.	.	.	.	.	.	.	.	.	.	.	.	.	.	.	.	.	.
!	!	!	!	!	!	!	!	!	!	!	!	!	!	!	!	!	!	!	!LO:MO:mod=et	!	!	!	!	!	!	!	!	!
8A\	.	.	8g\L	.	16ccn\LL	.	.	.	8B\	et	.	8d\	et	.	8g\	et	.	8gg\	Et	.	4g\	.	4g\	.	.	.	.	.
.	.	.	.	.	16cc\	.	.	.	.	.	.	.	.	.	.	.	.	.	.	.	.	.	.	.	.	.	.	.
8B\J	5	.	8fn\J	.	16dd\	.	8ffn\	.	8B\	in-	.	8d\	in-	.	8g\	in-	.	8ff\	in-	.	.	.	.	.	.	.	8ff\	.
.	.	.	.	.	16dd\JJ	.	.	.	.	.	.	.	.	.	.	.	.	.	.	.	.	.	.	.	.	.	.	.
=15	=15	=15	=15	=15	=15	=15	=15	=15	=15	=15	=15	=15	=15	=15	=15	=15	=15	=15	=15	=15	=15	=15	=15	=15	=15	=15	=15	=15
.	.	.	.	.	.	.	8qff/	.	.	.	.	.	.	.	.	.	.	.	.	.	.	.	.	.	.	.	.	.
*	*	*	*	*	*tremolo	*	*	*	*	*	*	*	*	*	*	*	*	*	*	*	*	*	*	*	*	*	*	*
8c\L	.	.	8e\L	.	16cc\LL	.	8ee\L	.	8c\	-vi-	.	8c\	-vi-	.	8g\	-vi-	.	8ee\	-vi-	.	4c/	.	4g\	.	2cc\	.	4ee\	.
.	.	.	.	.	16cc\	.	.	.	.	.	.	.	.	.	.	.	.	.	.	.	.	.	.	.	.	.	.	.
8Bn\	.	.	8g\	.	16cc\	.	16dd\L	.	8Bn\	-si-	.	8c\	-si-	.	8g\	-si-	.	8ee\	-si-	.	.	.	.	.	.	.	.	.
.	.	.	.	.	16cc\JJ	.	16ee\JJ	.	.	.	.	.	.	.	.	.	.	.	.	.	.	.	.	.	.	.	.	.
!	!	!	!	!	!	!	!	!	!	!	!	!	!LO:MO:mod=-bi-	!	!LO:SIC:s=8fL	!	!	!	!	!	!	!	!	!	!	!	!	!
8A\	6	.	8f\	.	16cc\LL	.	8ff\L	.	(8A\L	-bi-	.	4c\	-bil-	.	8f\	-bi-	.	8ff\L	-bi-	.	4r	.	4r	.	.	.	8ff\L	.
.	.	.	.	.	16cc\	.	.	.	.	.	.	.	.	.	.	.	.	.	.	.	.	.	.	.	.	.	.	.
!	!	!	!	!	!	!	!	!	!	!	!	!	!	!	!LO:SIC:s=8gJ	!LO:MO:mod=.	!	!	!	!	!	!	!	!	!	!	!	!
8G\	6 4	.	8e\	.	16cc\	.	8ee\	.	8G\	.	.	.	.	.	8g\	-li-	.	8ee\J	.	.	.	.	.	.	.	.	8gg\J	.
.	.	.	.	.	16cc\JJ	.	.	.	.	.	.	.	.	.	.	.	.	.	.	.	.	.	.	.	.	.	.	.
!	!	!	!	!	!	!	!	!	!	!	!	!	!	!	!LO:SIC:s=8aL	!LO:MO:null:mod=-li-	!	!	!	!	!	!	!	!	!	!	!	!
8F\	6	.	8d\	.	16a\LL	.	8dd\	.	8F\J)	.	.	4d\	-li-	.	8a\	.	.	8dd\L	-li-	.	4r	.	4r	.	8dd\L	.	4aa\	.
.	.	.	.	.	16a\	.	.	.	.	.	.	.	.	.	.	.	.	.	.	.	.	.	.	.	.	.	.	.
!	!	!	!	!	!	!	!	!	!	!	!	!	!	!	!LO:SIC:s=8aJ	!	!	!	!LO:MO:mod=.	!	!	!	!	!	!	!	!	!
8F#X\J	5	.	8d\J	.	16a\	.	8cc\J	.	8F#X\	-li-	.	.	.	.	8a\	.	.	8cc\J	-um	.	.	.	.	.	8cc\J	.	.	.
.	.	.	.	.	16a\JJ	.	.	.	.	.	.	.	.	.	.	.	.	.	.	.	.	.	.	.	.	.	.	.
!	!	!	!	!	!	!	!LO:LB:g=original	!	!LO:LB:g=original	!	!	!	!	!	!	!	!	!LO:PB:g=original	!	!	!	!	!LO:LB:g=original	!	!	!	!	!
=16	=16	=16	=16	=16	=16	=16	=16	=16	=16	=16	=16	=16	=16	=16	=16	=16	=16	=16	=16	=16	=16	=16	=16	=16	=16	=16	=16	=16
!LO:TX:t=P:problem=mixed beam	!	!	!	!	!	!	!	!	!	!	!	!	!	!	!	!	!	!	!LO:MO:mod=-um	!	!	!	!	!	!	!	!	!
8G\L	n	.	8Bn/L	.	16d/LL	.	16bn\LL	.	4G\	-um	.	4d\	-um	.	4g\	-um	.	4bn\	et	.	4g\	.	4g\	.	4bX\	.	4gg\	.
.	.	.	.	.	16d/	.	16dd\	.	.	.	.	.	.	.	.	.	.	.	.	.	.	.	.	.	.	.	.	.
8GG/J	7	.	8B/	.	16d/	.	16gg\	.	.	.	.	.	.	.	.	.	.	.	.	.	.	.	.	.	.	.	.	.
.	.	.	.	.	16d/JJ	.	16ff\JJ	.	.	.	.	.	.	.	.	.	.	.	.	.	.	.	.	.	.	.	.	.
!	!	!	!	!	!	!	!	!	!	!LO:MO:mod=et	!	!	!	!	!	!	!	!	!LO:MO:mod=et	!	!	!	!	!	!	!	!	!
4.G\	6 4	.	8c/	.	16g/LL	.	8ee\L	.	8G\	in	.	8d\	et	.	8g\	et	.	8cc\	in	.	4g\	.	4g\	.	4d/	.	4bX\	.
.	.	.	.	.	16g/	.	.	.	.	.	.	.	.	.	.	.	.	.	.	.	.	.	.	.	.	.	.	.
!	!	!	!	!	!	!	!	!	!	!LO:MO:mod=in	!	!	!	!	!	!	!	!	!LO:MO:mod=in	!	!	!	!	!	!	!	!	!
.	5 3	.	8d/	.	16g/	.	8dd\	.	8G\	u-	.	8d\	in	.	8g\	in	.	8b\	u-	.	.	.	.	.	.	.	.	.
.	.	.	.	.	16g/JJ	.	.	.	.	.	.	.	.	.	.	.	.	.	.	.	.	.	.	.	.	.	.	.
!	!	!	!	!	!	!	!	!	!	!LO:MO:mod=u-	!	!	!	!	!	!	!	!	!LO:MO:mod=u-	!	!	!	!	!	!	!	!	!
.	.	.	8e/	.	16g/LL	.	8cc\	.	8G\	-num	.	8c\	u-	.	8g\	u-	.	8cc\	-num	.	4g\	.	4g\	.	4g/	.	4dd\	.
.	.	.	.	.	16g/	.	.	.	.	.	.	.	.	.	.	.	.	.	.	.	.	.	.	.	.	.	.	.
!	!	!	!	!	!	!	!	!	!	!LO:MO:null:mod=-num	!	!	!	!	!	!	!	!	!LO:MO:null:mod=-num	!	!	!	!	!	!	!	!	!
8F\	n4 2	.	8d/J	.	16g/	.	8bn\J	.	8F\	.	.	8Bn\	-num	.	8g\	-num	.	8dd\	.	.	.	.	.	.	.	.	.	.
.	.	.	.	.	16g/JJ	.	.	.	.	.	.	.	.	.	.	.	.	.	.	.	.	.	.	.	.	.	.	.
!	!	!	!	!	!	!	!	!	!	!	!	!LO:LB:g=original	!	!	!LO:LB:g=original	!	!	!	!	!	!LO:LB:g=original	!	!	!	!	!	!	!
=17	=17	=17	=17	=17	=17	=17	=17	=17	=17	=17	=17	=17	=17	=17	=17	=17	=17	=17	=17	=17	=17	=17	=17	=17	=17	=17	=17	=17
8E\L	6	.	8c\L	.	16g/LL	.	8.cc\L	.	8E\L	Do-	.	4c\	Do-	.	4g\	Do-	.	4cc\	Do-	.	2.g\	.	2.g\	.	2cc\	.	2gg\	.
.	.	.	.	.	16g/	.	.	.	.	.	.	.	.	.	.	.	.	.	.	.	.	.	.	.	.	.	.	.
8G\	6 4	.	8g\	.	16g/	.	.	.	8G\J	.	.	.	.	.	.	.	.	.	.	.	.	.	.	.	.	.	.	.
.	.	.	.	.	16g/	.	(32dd\LL	.	.	.	.	.	.	.	.	.	.	.	.	.	.	.	.	.	.	.	.	.
.	.	.	.	.	.	.	32cc\JJJ)	.	.	.	.	.	.	.	.	.	.	.	.	.	.	.	.	.	.	.	.	.
8F\	n4	.	8d\	.	16g/	.	8bn\L	.	8F\	-mi-	.	8d\	-mi-	.	8g\	-mi-	.	8bn\	-mi-	.	.	.	.	.	.	.	.	.
.	.	.	.	.	16g/	.	.	.	.	.	.	.	.	.	.	.	.	.	.	.	.	.	.	.	.	.	.	.
8E\	6	.	8e\J	.	16g/	.	8cc\	.	8E\	-num	.	8c\	-num	.	8g\	-num	.	8cc\	-num	.	.	.	.	.	.	.	.	.
.	.	.	.	.	16g/	.	.	.	.	.	.	.	.	.	.	.	.	.	.	.	.	.	.	.	.	.	.	.
8D\	n6	.	8Bn\L	.	16g/	.	8ff\	.	8D\	Je-	.	8Bn\	Je-	.	8g\	Je-	.	8ff\	Je-	.	.	.	.	.	8bX\L	.	8ff\L	.
.	.	.	.	.	16g/	.	.	.	.	.	.	.	.	.	.	.	.	.	.	.	.	.	.	.	.	.	.	.
8C\J	.	.	8c\J	.	16g/	.	8ee\J	.	8C\	-sum	.	8c\	-sum	.	8g\	-sum	.	8ee\	-sum	.	.	.	.	.	8cc\J	.	8ee\J	.
.	.	.	.	.	16g/JJ	.	.	.	.	.	.	.	.	.	.	.	.	.	.	.	.	.	.	.	.	.	.	.
*	*	*	*	*	*Xtremolo	*	*	*	*	*	*	*	*	*	*	*	*	*	*	*	*	*	*	*	*	*	*	*
!	!	!	!	!	!LO:LB:g=original	!	!	!	!	!	!	!	!	!	!	!	!	!	!	!	!	!	!	!	!LO:LB:g=original	!	!	!
=18	=18	=18	=18	=18	=18	=18	=18	=18	=18	=18	=18	=18	=18	=18	=18	=18	=18	=18	=18	=18	=18	=18	=18	=18	=18	=18	=18	=18
!	!	!	!	!	!	!	!	!	!	!	!	!LO:SIC:v:s=4B	!	!	!	!	!	!	!	!	!	!	!	!	!	!	!	!
4G\	n	.	4d/	.	4bn 4g\	.	4dd\	.	4G\	Chri-	.	4B-\	Chri-	.	4g\	Chri-	.	4dd\	Chri-	.	4g\	.	4g\	.	4bX\	.	4dd\	.
!	!	!	!	!	!	!	!	!	!	!	!	!LO:SIC:v:s=4B	!	!	!	!	!	!	!	!	!	!	!	!	!	!	!	!
4D\	.	.	4d 4G/	.	4b 4d 4G/	.	4gg 4bn 4d\	.	4GG/	-stum	.	4B-\	-stum	.	4g\	-stum	.	4g\	-stum	.	4g\	.	4g\	.	4b\	.	4gg\	.
4BBn/	.	.	4d 4G/	.	4b 4d 4G/	.	4gg 4b 4d\	.	4r	.	.	4r	.	.	4r	.	.	4r	.	.	4g\	.	4g\	.	4b\	.	4gg\	.
=19	=19	=19	=19	=19	=19	=19	=19	=19	=19	=19	=19	=19	=19	=19	=19	=19	=19	=19	=19	=19	=19	=19	=19	=19	=19	=19	=19	=19
!	!	!	!	!	!	!	!	!	!LO:TX:a:t=25.:mod=	!	!	!LO:TX:a:t=25.:mod=	!	!	!LO:TX:a:t=25.:mod=	!	!	!	!	!	!	!	!	!	!	!	!	!
!	!	!	!	!	!LO:SIC:v:s=4b 4d 4G	!	!LO:SIC:v:s=4gg 4b 4d	!	!LO:TX:b:t=25.:mod=	!	!	!LO:TX:b:t=25.:mod=	!	!	!LO:TX:b:t=25.:mod=	!	!	!LO:TX:a:t=1.:mod=	!	!	!	!	!	!	!LO:SIC:v:s=4b	!	!	!
8GG/L	n	.	4d 4G/	.	4b- 4d 4G/	.	4gg 4b- 4d\	.	2.r	.	.	2.r	.	.	2.r	.	.	2.r	.	.	4g\	.	4g\	.	4b-\	.	4gg\	.
16BBn/L	.	.	.	.	.	.	.	.	.	.	.	.	.	.	.	.	.	.	.	.	.	.	.	.	.	.	.	.
16D/JJ	.	.	.	.	.	.	.	.	.	.	.	.	.	.	.	.	.	.	.	.	.	.	.	.	.	.	.	.
8G\L	.	.	8g\L	.	4r	.	4r	.	.	.	.	.	.	.	.	.	.	.	.	.	4r	.	4r	.	4r	.	4r	.
8F\	.	.	8f\	.	.	.	.	.	.	.	.	.	.	.	.	.	.	.	.	.	.	.	.	.	.	.	.	.
8E\	.	.	8e\	.	4r	.	4r	.	.	.	.	.	.	.	.	.	.	.	.	.	4r	.	4r	.	4r	.	4r	.
8D\J	.	.	8d\J	.	.	.	.	.	.	.	.	.	.	.	.	.	.	.	.	.	.	.	.	.	.	.	.	.
!LO:LB:g=original	!	!	!LO:PB:g=original	!	!	!	!	!	!	!	!	!	!	!	!	!	!	!	!	!	!	!	!	!	!	!	!	!
=20	=20	=20	=20	=20	=20	=20	=20	=20	=20	=20	=20	=20	=20	=20	=20	=20	=20	=20	=20	=20	=20	=20	=20	=20	=20	=20	=20	=20
!	!	!LO:MO:mod=!LO&colon;DY&colon;ed=brack	!	!	!	!	!	!	!	!	!	!	!	!	!	!	!	!	!	!	!	!	!	!	!	!	!	!
!	!	!null	!	!	!	!	!	!LO:DY:a:t=p	!	!	!	!	!	!	!	!	!	!	!	!	!	!	!LO:TX:a:t=9.:mod=	!	!	!	!	!
!LO:TX:a:i:t=Solo:mod=	!	!LO:MO:null:mod=p	!	!	!	!LO:MO:mod=.	!	!LO:MO:mod=.	!	!	!	!	!	!	!	!	!	!LO:TX:a:i:t=Solo.:mod=Solo	!	!	!LO:TX:a:t=9.:mod=	!	!LO:TX:b:t=9.:mod=	!	!LO:TX:a:t=9:mod=	!	!LO:TX:a:t=9:mod=	!
4C/	5	.	8c/L	p	8r	p	8r	p	2.r	.	.	2.r	.	.	2.r	.	.	2cc\	Ge-	.	0.r	.	0.r	.	0.r	.	0.r	.
!	!	!	!	!	!LO:SIC:s=8e|L	!LO:MO:null:mod=p	!	!LO:MO:null:mod=p	!	!	!	!	!	!	!	!	!	!	!	!	!	!	!	!	!	!	!	!
.	.	.	8G/J	.	8e/L	.	8cc|\L	.	.	.	.	.	.	.	.	.	.	.	.	.	.	.	.	.	.	.	.	.
!	!	!	!	!	!LO:SIC:s=8e|	!	!LO:SIC:s=8cc|	!	!	!	!	!	!	!	!	!	!	!	!	!	!	!	!	!	!	!	!	!
4r	.	.	8c\L	.	8e/	.	8cc\	.	.	.	.	.	.	.	.	.	.	.	.	.	.	.	.	.	.	.	.	.
!	!	!	!	!	!LO:SIC:s=8e|J	!	!LO:SIC:s=8cc|	!	!	!	!	!	!	!	!	!	!	!	!	!	!	!	!	!	!	!	!	!
.	.	.	8c\	.	8e/J	.	8cc\	.	.	.	.	.	.	.	.	.	.	.	.	.	.	.	.	.	.	.	.	.
!	!	!	!	!	!	!LO:MO:mod=!LO&colon;DY&colon;ed=brack	!	!	!	!	!	!	!	!	!	!	!	!	!	!	!	!	!	!	!	!	!	!
!	!	!	!	!	!	!null	!	!	!	!	!	!	!	!	!	!	!	!	!	!	!	!	!	!	!	!	!	!
!	!	!	!	!	!	!LO:MO:null:mod=rf	!	!	!	!	!	!	!	!	!	!	!	!	!	!	!	!	!	!	!	!	!	!
4r	.	.	8e\	.	8b-XL 8g/	.	8cc#X\	rf	.	.	.	.	.	.	.	.	.	4cc#X\	-ni-	.	.	.	.	.	.	.	.	.
.	.	.	8e\J	.	8b-J 8g/	.	8cc#\J	.	.	.	.	.	.	.	.	.	.	.	.	.	.	.	.	.	.	.	.	.
=21	=21	=21	=21	=21	=21	=21	=21	=21	=21	=21	=21	=21	=21	=21	=21	=21	=21	=21	=21	=21	=21	=21	=21	=21	=21	=21	=21	=21
4C/	7 2	.	4f\	.	8r	.	8r	.	2.r	.	.	2.r	.	.	2.r	.	.	(4dd\	-tum	.	.	.	.	.	.	.	.	.
.	.	.	.	.	8a|/L	.	8dd|\L	.	.	.	.	.	.	.	.	.	.	.	.	.	.	.	.	.	.	.	.	.
4r	.	.	4.d 4.Bn\	.	(8a/	.	(8ff\	.	.	.	.	.	.	.	.	.	.	4ff\)	.	.	.	.	.	.	.	.	.	.
.	.	.	.	.	8f/)	.	8dd\)	.	.	.	.	.	.	.	.	.	.	.	.	.	.	.	.	.	.	.	.	.
!	!	!	!	!	!	!LO:MO:mod=!LO&colon;DY&colon;ed=brack	!	!	!	!	!	!	!	!	!	!	!	!	!	!	!	!	!	!	!	!	!	!
!	!	!	!	!	!	!null	!	!	!	!	!	!	!	!	!	!	!	!	!	!	!	!	!	!	!	!	!	!
!	!	!	!	!	!	!LO:MO:null:mod=rf	!	!	!	!	!	!	!	!	!	!	!	!	!	!	!	!	!	!	!	!	!	!
4r	.	.	.	.	(8g/	.	(8bn\	rf	.	.	.	.	.	.	.	.	.	4bn\	non	.	.	.	.	.	.	.	.	.
.	.	.	8d\	.	8f/J)	.	8dd\J)	.	.	.	.	.	.	.	.	.	.	.	.	.	.	.	.	.	.	.	.	.
!	!	!	!	!	!	!	!LO:LB:g=original	!	!	!	!	!	!	!	!	!	!	!LO:LB:g=original	!	!	!	!	!	!	!	!	!	!
=22	=22	=22	=22	=22	=22	=22	=22	=22	=22	=22	=22	=22	=22	=22	=22	=22	=22	=22	=22	=22	=22	=22	=22	=22	=22	=22	=22	=22
4C/	8_	.	4c/	.	8r	.	8r	.	2.r	.	.	2.r	.	.	2.r	.	.	8dd\L	fac-	.	.	.	.	.	.	.	.	.
!	!	!	!	!	!LO:SIC:s=8e|L	!	!	!	!	!	!	!	!	!	!	!	!	!	!	!	!	!	!	!	!	!	!	!
.	.	.	.	.	8e/L	.	8cc|\L	.	.	.	.	.	.	.	.	.	.	8cc\J	.	.	.	.	.	.	.	.	.	.
!	!	!	!	!	!LO:SIC:s=8d|	!	!	!	!	!	!	!	!	!	!	!	!	!	!	!	!	!	!	!	!	!	!	!
4r	.	.	4C/	.	8d/	.	(8bn\	.	.	.	.	.	.	.	.	.	.	4cc\	-tum	.	.	.	.	.	.	.	.	.
!	!	!	!	!	!LO:SIC:s=8e|	!	!	!	!	!	!	!	!	!	!	!	!	!	!	!	!	!	!	!	!	!	!	!
.	.	.	.	.	8e/	.	8cc\)	.	.	.	.	.	.	.	.	.	.	.	.	.	.	.	.	.	.	.	.	.
!	!	!	!	!	!	!LO:MO:mod=!LO&colon;DY&colon;ed=brack	!	!	!	!	!	!	!	!	!	!	!	!	!	!	!	!	!	!	!	!	!	!
!	!	!	!	!	!	!null	!	!	!	!	!	!	!	!	!	!	!	!	!	!	!	!	!	!	!	!	!	!
!	!	!	!	!	!LO:SIC:s=(8g	!LO:MO:null:mod=rf	!	!	!	!	!	!	!	!	!	!	!	!	!	!	!	!	!	!	!	!	!	!
4r	.	.	4r	.	8g/	.	(8ee\	rf	.	.	.	.	.	.	.	.	.	4r	.	.	.	.	.	.	.	.	.	.
!	!	!	!	!	!LO:SIC:s=8fJ)	!	!	!	!	!	!	!	!	!	!	!	!	!	!	!	!	!	!	!	!	!	!	!
.	.	.	.	.	8f/J	.	8dd\J)	.	.	.	.	.	.	.	.	.	.	.	.	.	.	.	.	.	.	.	.	.
=23	=23	=23	=23	=23	=23	=23	=23	=23	=23	=23	=23	=23	=23	=23	=23	=23	=23	=23	=23	=23	=23	=23	=23	=23	=23	=23	=23	=23
4C/	.	.	4c 4C/	.	8r	.	8r	.	2.r	.	.	2.r	.	.	2.r	.	.	4.cc\	con-	.	.	.	.	.	.	.	.	.
!	!	!	!	!	!LO:SIC:s=8eL|	!	!	!	!	!	!	!	!	!	!	!	!	!	!	!	!	!	!	!	!	!	!	!
.	.	.	.	.	8e/L	.	8cc|\L	.	.	.	.	.	.	.	.	.	.	.	.	.	.	.	.	.	.	.	.	.
!	!	!	!	!	!LO:SIC:s=8e|	!	!	!	!	!	!	!	!	!	!	!	!	!	!	!	!	!	!	!	!	!	!	!
4r	x	.	4c 4C/	.	8e/	.	8cc|\	.	.	.	.	.	.	.	.	.	.	.	.	.	.	.	.	.	.	.	.	.
!	!	!	!	!	!LO:SIC:s=8e|	!	!	!	!	!	!	!	!	!	!	!	!	!	!	!	!	!	!	!	!	!	!	!
.	.	.	.	.	8g/	.	8cc|\	.	.	.	.	.	.	.	.	.	.	8cc\	-sub-	.	.	.	.	.	.	.	.	.
!	!	!	!	!	!	!LO:MO:mod=!LO&colon;DY&colon;ed=brack	!	!	!	!	!	!	!	!	!	!	!	!	!	!	!	!	!	!	!	!	!	!
!	!	!	!	!	!	!null	!	!	!	!	!	!	!	!	!	!	!	!	!	!	!	!	!	!	!	!	!	!
!	!	!	!	!	!LO:SIC:s=(8g	!LO:MO:null:mod=rf	!	!	!	!	!	!	!	!	!	!	!	!	!	!	!	!	!	!	!	!	!	!
4r	.	.	4r	.	8g/	.	(8ee\	rf	.	.	.	.	.	.	.	.	.	8cc\	-stan-	.	.	.	.	.	.	.	.	.
!	!	!	!	!	!LO:SIC:s=8eJ)	!	!	!	!	!	!	!	!	!	!	!	!	!	!	!	!	!	!	!	!	!	!	!
.	.	.	.	.	8e/J	.	8cc\J)	.	.	.	.	.	.	.	.	.	.	8cc\	-ti-	.	.	.	.	.	.	.	.	.
=24	=24	=24	=24	=24	=24	=24	=24	=24	=24	=24	=24	=24	=24	=24	=24	=24	=24	=24	=24	=24	=24	=24	=24	=24	=24	=24	=24	=24
4C/	6 4	.	4c 4C/	.	8r	.	8r	.	2.r	.	.	2.r	.	.	2.r	.	.	(4dd\	-a-	.	0.r	.	0.r	.	0.r	.	0.r	.
!	!	!	!	!	!LO:SIC:s=8aL 8f|	!	!LO:SIC:s=8dd|L	!	!	!	!	!	!	!	!	!	!	!	!	!	!	!	!	!	!	!	!	!
.	.	.	.	.	8aL 8f/	.	8dd\L	.	.	.	.	.	.	.	.	.	.	.	.	.	.	.	.	.	.	.	.	.
!	!	!	!	!	!LO:SIC:s=8a 8f|	!	!LO:SIC:s=8dd|	!	!	!	!	!	!	!	!	!	!	!	!	!	!	!	!	!	!	!	!	!
4r	.	.	4c 4C/	.	8a 8f/	.	8dd\	.	.	.	.	.	.	.	.	.	.	4ff\)	.	.	.	.	.	.	.	.	.	.
!	!	!	!	!	!LO:SIC:s=8a 8f|	!	!LO:SIC:s=8dd|	!	!	!	!	!	!	!	!	!	!	!	!	!	!	!	!	!	!	!	!	!
.	.	.	.	.	8a 8f/	.	8dd\	.	.	.	.	.	.	.	.	.	.	.	.	.	.	.	.	.	.	.	.	.
!	!	!	!	!	!	!LO:MO:mod=!LO&colon;DY&colon;ed=brack	!	!	!	!	!	!	!	!	!	!	!	!	!	!	!	!	!	!	!	!	!	!
!	!	!	!	!	!	!null	!	!	!	!	!	!	!	!	!	!	!	!	!	!	!	!	!	!	!	!	!	!
!	!	!	!	!	!LO:SIC:v:s=(8d 8B/	!LO:MO:null:mod=rf	!	!	!	!	!	!	!	!	!	!	!	!	!	!	!	!	!	!	!	!	!	!
4r	.	.	4r	.	(8d 8B-/	.	(8ff\	rf	.	.	.	.	.	.	.	.	.	4bn\	-lem	.	.	.	.	.	.	.	.	.
.	.	.	.	.	8f/J)	.	8bn\J)	.	.	.	.	.	.	.	.	.	.	.	.	.	.	.	.	.	.	.	.	.
!	!	!	!	!	!LO:LB:g=original	!	!	!	!	!	!	!	!	!	!	!	!	!	!	!	!	!	!	!	!	!	!	!
=25	=25	=25	=25	=25	=25	=25	=25	=25	=25	=25	=25	=25	=25	=25	=25	=25	=25	=25	=25	=25	=25	=25	=25	=25	=25	=25	=25	=25
!LO:TX:t=P:problem=takt nr 25 zapisany repetycją	!	!	!	!	!	!	!	!	!	!	!	!	!	!	!	!	!	!	!LO:MO:mod=Pa-	!	!	!	!	!	!	!	!	!
4C/yy	6 4	.	4c/	.	8r	.	8r	.	2.r	.	.	2.r	.	.	2.r	.	.	8dd\L	pa-	.	.	.	.	.	.	.	.	.
!	!	!	!	!	!	!	!LO:SIC:s=8cc|L	!	!	!	!	!	!	!	!	!	!	!	!	!	!	!	!	!	!	!	!	!
.	.	.	.	.	(8g/L	.	8cc'\L	.	.	.	.	.	.	.	.	.	.	8cc\J	.	.	.	.	.	.	.	.	.	.
!	!	!	!	!	!	!	!	!LO:MO:mod=.	!	!	!	!	!	!	!	!	!	!	!	!	!	!	!	!	!	!	!	!
4ryy	.	.	4C/	.	8f/	.	(8bn\	<	.	.	.	.	.	.	.	.	.	4cc\	-tri	.	.	.	.	.	.	.	.	.
.	.	.	.	.	8e/	.	8cc\	.	.	.	.	.	.	.	.	.	.	.	.	.	.	.	.	.	.	.	.	.
!	!	!	!	!	!	!	!LO:SIC:s=8dd	!	!	!	!	!	!	!	!	!	!	!	!	!	!	!	!	!	!	!	!	!
4ryy	.	.	4r	.	8f/	.	8dd\)	.	.	.	.	.	.	.	.	.	.	4r	.	.	.	.	.	.	.	.	.	.
!	!	!	!	!	!	!	!	!LO:MO:mod=.	!	!	!	!	!	!	!	!	!	!	!	!	!	!	!	!	!	!	!	!
.	.	.	.	.	8g/J)	.	8dd#X\J	[	.	.	.	.	.	.	.	.	.	.	.	.	.	.	.	.	.	.	.	.
=26	=26	=26	=26	=26	=26	=26	=26	=26	=26	=26	=26	=26	=26	=26	=26	=26	=26	=26	=26	=26	=26	=26	=26	=26	=26	=26	=26	=26
!	!	!	!	!	!	!	!LO:SIC:s=8eeL)	!	!	!	!	!	!	!	!	!	!	!	!	!	!	!	!	!	!	!	!	!
!	!	!	!	!	!	!	!LO:TX:t=P:problem=mixed beam	!	!	!	!	!	!	!	!	!	!	!LO:SIC:s=(4ee	!	!	!	!	!	!	!	!	!	!
4AA/	n	.	(8A/L	.	(8c/L	.	8ee\L	.	2.r	.	.	2.r	.	.	2.r	.	.	4ee\	per	.	.	.	.	.	.	.	.	.
.	.	.	8c/	.	8e/	.	(8e^</	.	.	.	.	.	.	.	.	.	.	.	.	.	.	.	.	.	.	.	.	.
4r	.	.	8A/	.	8c/	.	8cc/	.	.	.	.	.	.	.	.	.	.	8dd\L	.	.	.	.	.	.	.	.	.	.
!	!	!	!	!	!	!	!	!	!	!	!	!	!	!	!	!	!	!LO:SIC:s=8ccJ)	!	!	!	!	!	!	!	!	!	!
.	.	.	8c/	.	8e/	.	8e/	.	.	.	.	.	.	.	.	.	.	8cc\J	.	.	.	.	.	.	.	.	.	.
4A\	.	.	8A/	.	8c/	.	8a/	.	.	.	.	.	.	.	.	.	.	8bn\L	quem	.	.	.	.	.	.	.	.	.
.	.	.	8c/J)	.	8e/J)	.	8e/J)	.	.	.	.	.	.	.	.	.	.	8a\J	.	.	.	.	.	.	.	.	.	.
!	!	!	!LO:LB:g=original	!	!	!	!	!	!	!	!	!	!	!	!	!	!	!LO:LB:g=original	!	!	!	!	!	!	!	!	!	!
=27	=27	=27	=27	=27	=27	=27	=27	=27	=27	=27	=27	=27	=27	=27	=27	=27	=27	=27	=27	=27	=27	=27	=27	=27	=27	=27	=27	=27
!LO:SIC:v:s=4B	!	!	!	!	!	!	!	!	!	!	!	!	!	!	!	!	!	!LO:N:vis=4.	!	!	!	!	!	!	!	!	!	!
4B-\	7	.	(8Bn/L	.	(8d/L	.	(8a/L	.	2.r	.	.	2.r	.	.	2.r	.	.	8.a\	om-	.	.	.	.	.	.	.	.	.
.	.	.	8d/	.	8e/	.	8e/	.	.	.	.	.	.	.	.	.	.	.	.	.	.	.	.	.	.	.	.	.
.	.	.	.	.	.	.	.	.	.	.	.	.	.	.	.	.	.	16g#X\	-ni-	.	.	.	.	.	.	.	.	.
!LO:SIC:v:s=4BB	!	!	!	!	!	!	!	!	!	!	!	!	!	!	!	!	!	!	!	!	!	!	!	!	!	!	!	!
4BB-/	6	.	8B/	.	8d/	.	8g#X/	.	.	.	.	.	.	.	.	.	.	4g#\	-a	.	.	.	.	.	.	.	.	.
.	.	.	8d/	.	8e/	.	8e/	.	.	.	.	.	.	.	.	.	.	.	.	.	.	.	.	.	.	.	.	.
!LO:SIC:v:s=4B	!	!	!LO:SIC:s=8B	!	!	!	!	!	!	!	!	!	!	!	!	!	!	!	!	!	!	!	!	!	!	!	!	!
4B-\	.	.	8B/)	.	8d/	.	8g#/	.	.	.	.	.	.	.	.	.	.	4r	.	.	.	.	.	.	.	.	.	.
!	!	!	!LO:SIC:s=8dJ)	!	!	!	!	!	!	!	!	!	!	!	!	!	!	!	!	!	!	!	!	!	!	!	!	!
.	.	.	8d/J	.	8e/J)	.	8e/J)	.	.	.	.	.	.	.	.	.	.	.	.	.	.	.	.	.	.	.	.	.
!	!	!	!	!	!	!	!LO:LB:g=original	!	!	!	!	!	!	!	!	!	!	!	!	!	!	!	!	!	!	!	!	!
=28	=28	=28	=28	=28	=28	=28	=28	=28	=28	=28	=28	=28	=28	=28	=28	=28	=28	=28	=28	=28	=28	=28	=28	=28	=28	=28	=28	=28
!	!	!	!	!	!LO:SIC:v:s=(8BL	!	!LO:TX:t=P:problem=mixed beam	!	!	!	!	!	!	!	!	!	!	!	!LO:MO:mod=fac-	!	!	!	!	!	!	!	!	!
4G#X\	.	.	4G#X/	.	(8B-/L	.	(8bn/L	.	2.r	.	.	2.r	.	.	2.r	.	.	(4bn\	fa-	.	2.r	.	2.r	.	2.r	.	2.r	.
.	.	.	.	.	8d/	.	8e/	.	.	.	.	.	.	.	.	.	.	.	.	.	.	.	.	.	.	.	.	.
!	!	!	!	!	!LO:SIC:v:s=8B	!	!	!	!	!	!	!	!	!	!	!	!	!	!	!	!	!	!	!	!	!	!	!
4r	.	.	4G#/	.	8B-/	.	8ee\	.	.	.	.	.	.	.	.	.	.	4ee\)	.	.	.	.	.	.	.	.	.	.
.	.	.	.	.	8d/	.	8e/	.	.	.	.	.	.	.	.	.	.	.	.	.	.	.	.	.	.	.	.	.
!	!	!	!	!	!LO:SIC:v:s=8B	!	!	!	!	!	!	!	!	!	!	!	!	!	!LO:MO:mod=-ta	!	!	!	!	!	!	!	!	!
4G#\	6 5	.	4Bn/	.	8B-/	.	8dd\	.	.	.	.	.	.	.	.	.	.	4dd\	-cta	.	.	.	.	.	.	.	.	.
.	.	.	.	.	8d/J)	.	8e/J)	.	.	.	.	.	.	.	.	.	.	.	.	.	.	.	.	.	.	.	.	.
=29	=29	=29	=29	=29	=29	=29	=29	=29	=29	=29	=29	=29	=29	=29	=29	=29	=29	=29	=29	=29	=29	=29	=29	=29	=29	=29	=29	=29
!	!	!	!	!	!	!	!LO:SIC:s=(8ccL	!	!	!	!	!	!	!	!	!	!	!	!	!	!	!	!	!	!	!	!	!
4A\	n	.	(8A/L	.	(8c/L	.	8cc/L	.	2.r	.	.	2.r	.	.	2.r	.	.	4cc\	sunt	.	4r	.	4r	.	4r	.	4r	.
.	.	.	8c/	.	8e/	.	8e/	.	.	.	.	.	.	.	.	.	.	.	.	.	.	.	.	.	.	.	.	.
!	!	!	!	!	!	!	!	!	!	!	!	!	!	!	!	!	!	!	!	!	!	!LO:MO:mod=!LO&colon;DY&colon;ed=brack	!	!	!	!	!	!
!	!	!	!	!	!	!	!	!	!	!	!	!	!	!	!	!	!	!	!	!	!	!null	!	!	!	!	!	!
!	!	!	!	!	!	!	!LO:SIC:s=8cc	!	!	!	!	!	!	!	!	!	!	!	!	!	!	!LO:MO:null:mod=p	!	!	!LO:SIC:s=(4cc	!	!	!
4A\	.	.	8A/	.	8c/	.	8cc|/	.	.	.	.	.	.	.	.	.	.	4r	.	.	4A/	.	4a\	p	4cc\	p	(4aa\	p
.	.	.	8c/	.	8e/	.	8a/	.	.	.	.	.	.	.	.	.	.	.	.	.	.	.	.	.	.	.	.	.
!	!	!	!	!	!	!	!LO:SIC:s=8cc#	!	!	!	!	!	!	!	!	!	!	!	!	!	!	!	!	!	!LO:SIC:s=4a)	!	!	!
4Gn\	#4 2	.	8A/	.	8c#X/	.	8cc#X/^<	.	.	.	.	.	.	.	.	.	.	4r	.	.	4A/	.	4a\	.	4a\	.	4cc#X\)	.
!	!	!	!LO:N:acc=-	!	!	!	!LO:SIC:s=8aJ)	!	!	!	!	!	!	!	!	!	!	!	!	!	!	!	!	!	!	!	!	!
.	.	.	8c#/J)	.	8e/J)	.	8a/J	.	.	.	.	.	.	.	.	.	.	.	.	.	.	.	.	.	.	.	.	.
!LO:PB:g=original	!	!	!	!	!	!	!	!	!	!	!	!	!	!	!	!	!	!	!	!	!	!	!	!	!	!	!LO:LB:g=original	!
=30	=30	=30	=30	=30	=30	=30	=30	=30	=30	=30	=30	=30	=30	=30	=30	=30	=30	=30	=30	=30	=30	=30	=30	=30	=30	=30	=30	=30
!	!	!	!LO:SIC:s=(8dL	!	!	!	!LO:TX:t=P:problem=mixed beam	!	!	!	!	!	!	!	!	!	!	!	!	!	!	!	!	!	!	!	!	!
4F\	6	.	8d/L	.	(8d/L	.	(<8dd\L	.	2.r	.	.	2.r	.	.	2.r	.	.	2dd\	per	.	4A/	.	4a\	.	4a\	.	4dd\	.
.	.	.	8A/	.	8a/	.	8a/)	.	.	.	.	.	.	.	.	.	.	.	.	.	.	.	.	.	.	.	.	.
4r	.	.	8F/	.	8d/	.	8a|/	.	.	.	.	.	.	.	.	.	.	.	.	.	4r	.	4r	.	4r	.	4r	.
.	.	.	8A/	.	8a/	.	8a|/J	.	.	.	.	.	.	.	.	.	.	.	.	.	.	.	.	.	.	.	.	.
4E\	6\	.	8G/	.	8e/	.	(8cc#X^/L	.	.	.	.	.	.	.	.	.	.	4cc#X\	quem	.	4r	.	4r	.	4r	.	4r	.
!	!	!	!LO:SIC:s=8AJ)	!	!	!	!	!	!	!	!	!	!	!	!	!	!	!	!	!	!	!	!	!	!	!	!	!
.	.	.	8A/J	.	8a/J)	.	8a/J)	.	.	.	.	.	.	.	.	.	.	.	.	.	.	.	.	.	.	.	.	.
=31	=31	=31	=31	=31	=31	=31	=31	=31	=31	=31	=31	=31	=31	=31	=31	=31	=31	=31	=31	=31	=31	=31	=31	=31	=31	=31	=31	=31
!	!	!	!	!	!	!	!	!	!	!	!	!	!	!	!	!	!	!	!	!	!	!LO:MO:mod=!LO&colon;DY&colon;ed=brack	!	!	!	!LO:MO:mod=!LO&colon;DY&colon;ed=brack	!	!
!	!	!	!	!	!	!	!	!	!	!	!	!	!	!	!	!	!	!	!	!	!	!null	!	!	!	!null	!	!
!LO:TX:t=P:stem.color=grey:problem	!	!	!	!	!	!	!	!	!	!	!	!	!	!	!	!	!	!	!	!	!	!LO:MO:null:mod=p	!	!	!	!LO:MO:null:mod=pp	!	!
8F\L	6	.	4F/	.	(8d/L	.	(8dd\L	.	2.r	.	.	2.r	.	.	2.r	.	.	4.dd\	om-	.	2.A/	.	2.a\	p	[2.a\	.	[2.aa\	pp
8F\J	6	.	.	.	8a/	.	8a\)	.	.	.	.	.	.	.	.	.	.	.	.	.	.	.	.	.	.	.	.	.
4F\	.	.	4A/	.	8d/	.	8a|\	.	.	.	.	.	.	.	.	.	.	.	.	.	.	.	.	.	.	.	.	.
.	.	.	.	.	8a/	.	8a|\J	.	.	.	.	.	.	.	.	.	.	8dd\	-ni-	.	.	.	.	.	.	.	.	.
4G\	#4 2	.	4A/	.	8e/	.	(8cc#X^<\L	.	.	.	.	.	.	.	.	.	.	4cc#X\	-a	.	.	.	.	.	.	.	.	.
.	.	.	.	.	8a/J)	.	8a\J)	.	.	.	.	.	.	.	.	.	.	.	.	.	.	.	.	.	.	.	.	.
!	!	!	!	!	!LO:LB:g=original	!	!	!	!	!	!	!	!	!	!	!	!	!	!	!	!	!	!	!	!	!	!	!
=32	=32	=32	=32	=32	=32	=32	=32	=32	=32	=32	=32	=32	=32	=32	=32	=32	=32	=32	=32	=32	=32	=32	=32	=32	=32	=32	=32	=32
!LO:SIC:s=(8FL	!	!	!LO:SIC:s=(8fL	!	!LO:SIC:s=(8aL	!	!LO:SIC:s=(8ddL	!	!	!	!	!	!	!	!	!	!	!	!LO:MO:mod=fac-	!	!	!	!	!	!	!	!	!
8F\L	6\	.	8f\L	.	8a/L	.	8dd\L	.	2.r	.	.	2.r	.	.	2.r	.	.	8dd\L	fa-	.	4A/	.	4a\	.	4a\]	.	4aa\]	.
8E\	.	.	8c#X\	.	8g/	.	8ee\	.	.	.	.	.	.	.	.	.	.	8ee\	.	.	.	.	.	.	.	.	.	.
!	!	!LO:MO:mod=!LO&colon;HP&colon;ed=brack	!	!LO:MO:mod=!LO&colon;HP&colon;ed=brack	!	!LO:MO:mod=!LO&colon;HP&colon;ed=brack	!	!	!	!	!	!	!	!	!	!	!	!	!	!	!	!	!	!	!	!	!	!
!	!	!null	!	!null	!	!null	!	!	!	!	!	!	!	!	!	!	!	!	!	!	!	!	!	!	!	!	!	!
!	!	!LO:MO:null:mod=<	!	!LO:MO:null:mod=<	!	!LO:MO:null:mod=<	!	!LO:HP:t=cres.	!	!	!	!	!	!	!	!	!	!	!	!	!	!	!	!	!	!	!	!
8D\	.	.	8d\	.	8f/	.	8ff\	<	.	.	.	.	.	.	.	.	.	8ff\	.	.	4r	.	4r	.	4r	.	4r	.
!	!	!	!	!	!	!	!	!	!	!	!	!	!	!	!	!	!	!LO:SIC:s=8eeJ	!	!	!	!	!	!	!	!	!	!
8E\	6\	.	8e\	.	8g/	.	8ee\	.	.	.	.	.	.	.	.	.	.	8ee\	.	.	.	.	.	.	.	.	.	.
!	!	!	!	!	!	!	!	!	!	!	!	!	!	!	!	!	!	!LO:SIC:s=8ddL	!LO:MO:mod=-ta	!	!	!	!	!	!	!	!	!
8F\	6	.	8f\	.	8a/	.	8dd\	.	.	.	.	.	.	.	.	.	.	8dd\	-cta	.	4r	.	4r	.	4r	.	4r	.
!LO:SIC:s=8F#J)	!	!	!LO:SIC:s=8aJ)	!	!LO:SIC:s=8dJ)	!	!LO:SIC:s=8ccJ)	!	!	!	!	!	!	!	!	!	!	!	!	!	!	!	!	!	!	!	!	!
8F#X\J	n5	.	8a\J	.	8d/J	.	8ccn\J	.	.	.	.	.	.	.	.	.	.	8ccn\J	.	.	.	.	.	.	.	.	.	.
!	!	!	!LO:LB:g=original	!	!	!	!LO:PB:g=original	!	!	!	!	!	!	!	!	!	!	!LO:LB:g=original	!	!	!	!	!LO:LB:g=original	!	!	!	!	!
=33	=33	=33	=33	=33	=33	=33	=33	=33	=33	=33	=33	=33	=33	=33	=33	=33	=33	=33	=33	=33	=33	=33	=33	=33	=33	=33	=33	=33
!	!	!LO:MO:mod=!LO&colon;DY&colon;ed=brack	!	!LO:MO:mod=!LO&colon;DY&colon;ed=brack	!	!LO:MO:mod=!LO&colon;DY&colon;ed=brack	!	!	!	!	!	!	!	!	!	!	!	!	!	!	!	!	!	!	!	!	!	!
!	!	!null	!	!null	!	!null	!	!	!	!	!	!	!	!	!	!	!	!	!	!	!	!	!LO:TX:a:t=11.:mod=	!	!	!	!	!
!	!	!LO:MO:null:mod=f	!	!LO:MO:null:mod=f	!	!LO:MO:null:mod=f	!	!LO:DY:t=f	!	!	!	!	!	!	!	!	!	!	!	!	!LO:TX:a:t=11.:mod=	!	!LO:TX:b:t=11.:mod=	!	!LO:TX:a:t=5.:mod=	!	!LO:TX:a:t=5.:mod=	!
4G\	n	.	4g\	.	8d/L	.	8bn/L	f	2.r	.	.	2.r	.	.	2.r	.	.	4bn\	sunt	.	0.r	.	0.r	.	0.r	.	0.r	.
!	!	!	!	!	!	!	!	!LO:DY:mod= :t=p	!	!	!	!	!	!	!	!	!	!	!	!	!	!	!	!	!	!	!	!
.	.	.	.	.	8Bn/J	.	8g/	p	.	.	.	.	.	.	.	.	.	.	.	.	.	.	.	.	.	.	.	.
4GG/	.	.	4G/	.	4G/	.	(8G/	.	.	.	.	.	.	.	.	.	.	4r	.	.	.	.	.	.	.	.	.	.
!	!	!	!	!	!	!	!LO:SIC:v:s=8B	!	!	!	!	!	!	!	!	!	!	!	!	!	!	!	!	!	!	!	!	!
.	.	.	.	.	.	.	8B-/	.	.	.	.	.	.	.	.	.	.	.	.	.	.	.	.	.	.	.	.	.
4r	.	.	4r	.	4r	.	8d/	.	.	.	.	.	.	.	.	.	.	4r	.	.	.	.	.	.	.	.	.	.
.	.	.	.	.	.	.	8g/J)	.	.	.	.	.	.	.	.	.	.	.	.	.	.	.	.	.	.	.	.	.
=34	=34	=34	=34	=34	=34	=34	=34	=34	=34	=34	=34	=34	=34	=34	=34	=34	=34	=34	=34	=34	=34	=34	=34	=34	=34	=34	=34	=34
!	!	!LO:MO:mod=!LO&colon;DY&colon;ed=brack	!	!LO:MO:mod=!LO&colon;DY&colon;ed=brack	!	!	!	!	!	!	!	!	!	!	!	!	!	!	!	!	!	!	!	!	!	!	!	!
!	!	!null	!	!null	!	!	!	!	!	!	!	!	!	!	!	!	!	!	!	!	!	!	!	!	!	!	!	!
!	!	!LO:MO:null:mod=p	!	!LO:MO:null:mod=p	!	!	!	!LO:MO:null:mod=p	!	!	!	!	!	!	!	!	!	!	!	!	!	!	!	!	!	!	!	!
4F\	n4_ 2_	.	4Bn/	.	8g/	p	8bn|\L	.	2.r	.	.	2.r	.	.	2.r	.	.	(4dd\	per	.	.	.	.	.	.	.	.	.
.	.	.	.	.	4g/	.	(8dd\	.	.	.	.	.	.	.	.	.	.	.	.	.	.	.	.	.	.	.	.	.
4r	.	.	4r	.	.	.	8cc\	.	.	.	.	.	.	.	.	.	.	8cc\L	.	.	.	.	.	.	.	.	.	.
.	.	.	.	.	4g/	.	8b\	.	.	.	.	.	.	.	.	.	.	8bn\J)	.	.	.	.	.	.	.	.	.	.
4F\	.	.	4d 4B/	.	.	.	8a\	.	.	.	.	.	.	.	.	.	.	8a\L	quem	.	.	.	.	.	.	.	.	.
.	.	.	.	.	8g/	.	8g\J)	.	.	.	.	.	.	.	.	.	.	8g\J	.	.	.	.	.	.	.	.	.	.
=35	=35	=35	=35	=35	=35	=35	=35	=35	=35	=35	=35	=35	=35	=35	=35	=35	=35	=35	=35	=35	=35	=35	=35	=35	=35	=35	=35	=35
!	!	!	!	!	!	!	!LO:SIC:s=8g|L	!	!	!	!	!	!	!	!	!	!	!	!	!	!	!	!	!	!	!	!	!
4E\	x	.	4c\	.	8g/	.	8g\L	.	2.r	.	.	2.r	.	.	2.r	.	.	8g\L	om-	.	.	.	.	.	.	.	.	.
.	.	.	.	.	4g/	.	(8ee\	.	.	.	.	.	.	.	.	.	.	8ee\J	.	.	.	.	.	.	.	.	.	.
4r	.	.	4e\	.	.	.	8dd\	.	.	.	.	.	.	.	.	.	.	8dd\L	-ni-	.	.	.	.	.	.	.	.	.
.	.	.	.	.	4g/	.	8cc\	.	.	.	.	.	.	.	.	.	.	8cc\J	.	.	.	.	.	.	.	.	.	.
4C/	.	.	4e\	.	.	.	8bn\	.	.	.	.	.	.	.	.	.	.	8bn\L	-a	.	.	.	.	.	.	.	.	.
.	.	.	.	.	8g/	.	8a\J)	.	.	.	.	.	.	.	.	.	.	8a\J	.	.	.	.	.	.	.	.	.	.
=36	=36	=36	=36	=36	=36	=36	=36	=36	=36	=36	=36	=36	=36	=36	=36	=36	=36	=36	=36	=36	=36	=36	=36	=36	=36	=36	=36	=36
!	!	!	!	!	!	!	!LO:SIC:s=8g|L	!	!	!	!	!	!	!	!	!	!	!	!LO:MO:mod=fac-	!	!	!	!	!	!	!	!	!
4BBn\	6 5	.	4d/	.	8g/	.	8g\L	.	2.r	.	.	2.r	.	.	2.r	.	.	8g\L	fa-	.	.	.	.	.	.	.	.	.
.	.	.	.	.	4g/	.	(8ff\	.	.	.	.	.	.	.	.	.	.	8ff\	.	.	.	.	.	.	.	.	.	.
4D\	n6	.	4Bn/	.	.	.	8ee\	.	.	.	.	.	.	.	.	.	.	8ee\	.	.	.	.	.	.	.	.	.	.
.	.	.	.	.	4g/	.	8dd\	.	.	.	.	.	.	.	.	.	.	8dd\J	.	.	.	.	.	.	.	.	.	.
!	!	!	!	!	!	!	!	!	!	!	!	!	!	!	!	!	!	!	!LO:MO:mod=-ta	!	!	!	!	!	!	!	!	!
4F\	n4 2	.	4d/	.	.	.	8cc\	.	.	.	.	.	.	.	.	.	.	8cc\L	-cta	.	.	.	.	.	.	.	.	.
.	.	.	.	.	8g/	.	8bn\J)	.	.	.	.	.	.	.	.	.	.	8bn\J	.	.	.	.	.	.	.	.	.	.
=37	=37	=37	=37	=37	=37	=37	=37	=37	=37	=37	=37	=37	=37	=37	=37	=37	=37	=37	=37	=37	=37	=37	=37	=37	=37	=37	=37	=37
!	!	!	!	!	!LO:SIC:s=8g|L	!	!	!	!	!	!	!	!	!	!	!	!	!	!	!	!	!	!	!	!	!	!	!
4E\	.	.	4c/	.	8g/L	.	8cc|>/L	.	2.r	.	.	2.r	.	.	2.r	.	.	4cc\	sunt	.	0.r	.	0.r	.	2.r	.	2.r	.
!	!	!	!	!	!	!	!	!LO:HP:t=cres&colon;	!	!	!	!	!	!	!	!	!	!	!	!	!	!	!	!	!	!	!	!
!	!	!	!	!	!	!	!LO:SIC:s=(8c	!LO:MO:mod=.	!	!	!	!	!	!	!	!	!	!	!	!	!	!	!	!	!	!	!	!
.	.	.	.	.	(8c/	.	8c|/	<	.	.	.	.	.	.	.	.	.	.	.	.	.	.	.	.	.	.	.	.
4C/	.	.	4C/	.	8e/	.	8e/	.	.	.	.	.	.	.	.	.	.	4r	.	.	.	.	.	.	.	.	.	.
!	!	!	!	!	!	!	!LO:SIC:s=8g	!	!	!	!	!	!	!	!	!	!	!	!	!	!	!	!	!	!	!	!	!
.	.	.	.	.	8g/	.	(8g/	.	.	.	.	.	.	.	.	.	.	.	.	.	.	.	.	.	.	.	.	.
4r	.	.	4r	.	8e/	.	8cc/	.	.	.	.	.	.	.	.	.	.	4r	.	.	.	.	.	.	.	.	.	.
.	.	.	.	.	8g/J)	.	8ee/J)	.	.	.	.	.	.	.	.	.	.	.	.	.	.	.	.	.	.	.	.	.
!LO:LB:g=original	!	!	!	!	!	!	!	!	!	!	!	!	!	!	!	!	!	!	!	!	!	!	!	!	!	!	!	!
=38	=38	=38	=38	=38	=38	=38	=38	=38	=38	=38	=38	=38	=38	=38	=38	=38	=38	=38	=38	=38	=38	=38	=38	=38	=38	=38	=38	=38
!	!	!	!	!	!	!	!	!	!	!	!	!	!	!	!	!	!	!	!	!	!	!	!	!	!	!	!	!LO:MO:mod=!LO&colon;DY&colon;ed=brack
!	!	!	!	!	!	!	!	!	!	!	!	!	!	!	!	!	!	!	!	!	!	!	!	!	!	!	!	!null
!	!	!	!	!	!	!	!LO:SIC:s=8cc|L	!	!	!	!	!	!	!	!	!	!	!	!	!	!	!	!	!	!	!	!	!LO:MO:null:mod=p
4B-X\	4 2	.	4G/	.	8e 8c/	.	8cc\L	.	2.r	.	.	2.r	.	.	2.r	.	.	2g\	per	.	.	.	.	.	2.cc\	p	2.ee\	.
.	.	.	.	.	4e 4c/	.	(8gg\	.	.	.	.	.	.	.	.	.	.	.	.	.	.	.	.	.	.	.	.	.
4r	.	.	4c/	.	.	.	8ff\	.	.	.	.	.	.	.	.	.	.	.	.	.	.	.	.	.	.	.	.	.
.	.	.	.	.	4e 4c/	.	8ee\	.	.	.	.	.	.	.	.	.	.	.	.	.	.	.	.	.	.	.	.	.
4B-\	.	.	4g\	.	.	.	8dd\	.	.	.	.	.	.	.	.	.	.	4cc\	quem	.	.	.	.	.	.	.	.	.
.	.	.	.	.	8e 8c/	.	8cc\J)	.	.	.	.	.	.	.	.	.	.	.	.	.	.	.	.	.	.	.	.	.
!	!	!	!	!	!LO:LB:g=original	!	!	!	!	!	!	!	!	!	!	!	!	!LO:LB:g=original	!	!	!	!	!	!	!	!	!	!
=39	=39	=39	=39	=39	=39	=39	=39	=39	=39	=39	=39	=39	=39	=39	=39	=39	=39	=39	=39	=39	=39	=39	=39	=39	=39	=39	=39	=39
!	!	!	!	!	!	!	!LO:SIC:s=8cc|L	!LO:MO:mod=.	!	!	!	!	!	!	!	!	!	!	!LO:MO:mod=om-	!	!	!	!	!	!	!	!	!
4A\	6	.	4A\	.	8f/	.	8cc\L	fp	2.r	.	.	2.r	.	.	2.r	.	.	4.cc\	Om-	.	.	.	.	.	2.cc\	.	2.ff\	.
.	.	.	.	.	4f/	.	(8aa\	.	.	.	.	.	.	.	.	.	.	.	.	.	.	.	.	.	.	.	.	.
4r	.	.	4c\	.	.	.	8gg\	.	.	.	.	.	.	.	.	.	.	.	.	.	.	.	.	.	.	.	.	.
.	.	.	.	.	4f/	.	8ff\	.	.	.	.	.	.	.	.	.	.	8cc\	-ni-	.	.	.	.	.	.	.	.	.
!	!	!	!	!	!	!	!LO:SIC:s=8ee	!	!	!	!	!	!	!	!	!	!	!	!	!	!	!	!	!	!	!	!	!
4F\	6	.	4c\	.	.	.	8ee\)	.	.	.	.	.	.	.	.	.	.	4cc\	-a	.	.	.	.	.	.	.	.	.
!	!	!	!	!	!	!	!LO:SIC:s=8ddJ)	!	!	!	!	!	!	!	!	!	!	!	!	!	!	!	!	!	!	!	!	!
.	.	.	.	.	8f/	.	8dd'\J	.	.	.	.	.	.	.	.	.	.	.	.	.	.	.	.	.	.	.	.	.
!	!	!	!	!	!	!	!LO:LB:g=original	!	!	!	!	!	!	!	!	!	!	!	!	!	!	!	!	!	!	!	!	!
=40	=40	=40	=40	=40	=40	=40	=40	=40	=40	=40	=40	=40	=40	=40	=40	=40	=40	=40	=40	=40	=40	=40	=40	=40	=40	=40	=40	=40
4E\	.	.	4B-/	.	8g/	.	(8cc\L	.	2.r	.	.	2.r	.	.	2.r	.	.	2cc\	fac-	.	.	.	.	.	2.cc\	.	(4gg\	.
!	!	!	!	!	!	!	!LO:SIC:s=8bb-)	!	!	!	!	!	!	!	!	!	!	!	!	!	!	!	!	!	!	!	!	!
.	.	.	.	.	4e/	.	8bb-X\)	.	.	.	.	.	.	.	.	.	.	.	.	.	.	.	.	.	.	.	.	.
4G\	.	.	4c/	.	.	.	(8aa'\	.	.	.	.	.	.	.	.	.	.	.	.	.	.	.	.	.	.	.	4bb-\)	.
.	.	.	.	.	4e/	.	8gg'\	.	.	.	.	.	.	.	.	.	.	.	.	.	.	.	.	.	.	.	.	.
4B-\	.	.	4G/	.	.	.	8ff'\	.	.	.	.	.	.	.	.	.	.	4e/	-ta	.	.	.	.	.	.	.	4ee|\	.
!	!	!	!	!	!	!	!LO:SIC:s=8ee'J)	!	!	!	!	!	!	!	!	!	!	!	!	!	!	!	!	!	!	!	!	!
.	.	.	.	.	8e/	.	8ee\J)	.	.	.	.	.	.	.	.	.	.	.	.	.	.	.	.	.	.	.	.	.
!	!	!	!	!	!	!	!	!	!	!	!	!	!	!	!	!	!	!	!	!	!	!	!	!	!LO:LB:g=original	!	!	!
=41	=41	=41	=41	=41	=41	=41	=41	=41	=41	=41	=41	=41	=41	=41	=41	=41	=41	=41	=41	=41	=41	=41	=41	=41	=41	=41	=41	=41
4A\	.	.	4A\	.	4f/	.	(8ff\L	.	2.r	.	.	2.r	.	.	2.r	.	.	2f/	sunt	.	1.r	.	1.r	.	4cc\	.	4ff\	.
.	.	.	.	.	.	.	8ccc\J)	.	.	.	.	.	.	.	.	.	.	.	.	.	.	.	.	.	.	.	.	.
4r	.	.	4r	.	4r	.	8bb-'\L	.	.	.	.	.	.	.	.	.	.	.	.	.	.	.	.	.	4r	.	4r	.
.	.	.	.	.	.	.	8aa'\	.	.	.	.	.	.	.	.	.	.	.	.	.	.	.	.	.	.	.	.	.
4A\	.	.	4f\	.	4cc\	.	(8gg\	.	.	.	.	.	.	.	.	.	.	4r	.	.	.	.	.	.	4r	.	4r	.
.	.	.	.	.	.	.	8ff\J)	.	.	.	.	.	.	.	.	.	.	.	.	.	.	.	.	.	.	.	.	.
!	!	!	!LO:LB:g=original	!	!	!	!	!	!	!	!	!	!	!	!	!	!	!	!	!	!	!	!	!	!	!	!	!
=42	=42	=42	=42	=42	=42	=42	=42	=42	=42	=42	=42	=42	=42	=42	=42	=42	=42	=42	=42	=42	=42	=42	=42	=42	=42	=42	=42	=42
!	!	!	!	!	!	!	!	!	!	!	!	!	!	!	!	!	!	!LO:TX:a:t=2.:mod=	!	!	!	!	!	!	!	!	!	!
4B-\	.	.	4f\	.	4f/	.	(8ee\L	.	2.r	.	.	2.r	.	.	2.r	.	.	1.r	.	.	.	.	.	.	4r	.	4r	.
.	.	.	.	.	.	.	8dd\J)	.	.	.	.	.	.	.	.	.	.	.	.	.	.	.	.	.	.	.	.	.
4r	.	.	4r	.	4r	.	8cc'\L	.	.	.	.	.	.	.	.	.	.	.	.	.	.	.	.	.	4r	.	4r	.
.	.	.	.	.	.	.	8b-'\J	.	.	.	.	.	.	.	.	.	.	.	.	.	.	.	.	.	.	.	.	.
!	!	!	!	!	!	!	!LO:SIC:s=(8aL	!	!	!	!	!	!	!	!	!	!	!	!	!	!	!	!	!	!	!	!	!
4BB-/	.	.	4G/	.	4d/	.	8a/L	.	.	.	.	.	.	.	.	.	.	.	.	.	.	.	.	.	4dd\	.	8aa\L	.
!	!	!	!	!	!	!	!LO:SIC:s=8gJ)	!	!	!	!	!	!	!	!	!	!	!	!	!	!	!	!	!	!	!	!	!
.	.	.	.	.	.	.	8g/J	.	.	.	.	.	.	.	.	.	.	.	.	.	.	.	.	.	.	.	8gg\J	.
!	!	!	!	!	!	!	!	!	!	!	!	!	!	!	!	!	!	!	!	!	!	!	!	!	!	!	!LO:LB:g=original	!
=43	=43	=43	=43	=43	=43	=43	=43	=43	=43	=43	=43	=43	=43	=43	=43	=43	=43	=43	=43	=43	=43	=43	=43	=43	=43	=43	=43	=43
!	!	!	!	!LO:MO:mod=.	!	!	!	!	!	!	!	!	!	!	!	!	!	!	!	!	!	!	!	!	!	!	!	!
4C/	.	.	4c/	f	4A/	.	8.fT/L	sf	2.r	.	.	2.r	.	.	2.r	.	.	.	.	.	2.r	.	2.r	.	4a\	.	4ff\	.
.	.	.	.	.	.	.	(32g/LL	.	.	.	.	.	.	.	.	.	.	.	.	.	.	.	.	.	.	.	.	.
.	.	.	.	.	.	.	32f/JJJ)	.	.	.	.	.	.	.	.	.	.	.	.	.	.	.	.	.	.	.	.	.
8C/L	.	.	8c|/L	.	4G/	.	4e/	.	.	.	.	.	.	.	.	.	.	.	.	.	.	.	.	.	4g\	.	4ee\	.
8BB-/	.	.	8B-|/	.	.	.	.	.	.	.	.	.	.	.	.	.	.	.	.	.	.	.	.	.	.	.	.	.
8AA/	.	.	8A|/	.	4r	.	4r	.	.	.	.	.	.	.	.	.	.	.	.	.	.	.	.	.	4r	.	4r	.
8GG/J	.	.	8G|/J	.	.	.	.	.	.	.	.	.	.	.	.	.	.	.	.	.	.	.	.	.	.	.	.	.
=44	=44	=44	=44	=44	=44	=44	=44	=44	=44	=44	=44	=44	=44	=44	=44	=44	=44	=44	=44	=44	=44	=44	=44	=44	=44	=44	=44	=44
!	!	!LO:MO:mod=!LO&colon;DY&colon;ed=brack	!	!	!	!	!	!	!	!	!	!	!	!	!	!	!LO:MO:mod=!LO&colon;DY&colon;ed=brack	!	!	!LO:MO:mod=!LO&colon;DY&colon;ed=brack	!	!LO:MO:mod=!LO&colon;DY&colon;ed=brack	!	!	!	!	!	!
!	!	!null	!	!	!	!	!	!	!	!	!	!	!	!	!	!	!null	!	!	!null	!	!null	!	!	!	!	!	!
!	!	!LO:MO:null:mod=f	!	!LO:MO:null:mod=f	!	!	!	!	!	!	!LO:DY:a	!LO:TX:a:i:t=Tutti:mod=	!	!	!	!LO:TX:a:i:t=Tutti.	!LO:MO:null:mod=f	!	!	!LO:MO:null:mod=f	!	!LO:MO:null:mod=f	!	!	!	!	!	!
4FF/	.	.	4c 4F\	.	4a 4f\	f	4ff 4a\	f	4F\	Qui	f	4c\	qui	f	4a\	Qui	.	4ff\	Qui	.	4A/	.	4f\	f	4a\	f	4ff\	f
4AA/	.	.	4c 4F\	.	4a 4f\	.	4ff 4a\	.	4F\	pro-	.	4c\	pro-	.	4a\	prop-	.	4ff\	prop-	.	4A/	.	4f\	.	4a\	.	4ff\	.
4C/	.	.	4c 4F\	.	4a 4f\	.	4ff 4a\	.	4F\	-pter	.	4c\	-pter	.	4a\	-ter	.	4ff\	-ter	.	4A/	.	4f\	.	4a\	.	4ff\	.
!	!	!	!	!	!	!	!	!	!LO:LB:g=original	!	!	!	!	!	!	!	!	!	!	!	!LO:LB:g=original	!	!	!	!	!	!	!
=45	=45	=45	=45	=45	=45	=45	=45	=45	=45	=45	=45	=45	=45	=45	=45	=45	=45	=45	=45	=45	=45	=45	=45	=45	=45	=45	=45	=45
4F\	.	.	4c 4F\	.	4a 4f\	.	8ffL 8a\	.	4F\	nos	.	4c\	nos	.	4a\	nos	.	4ff\	nos	.	4A/	.	4f\	.	4a\	.	4ff\	.
.	.	.	.	.	.	.	8cc\	.	.	.	.	.	.	.	.	.	.	.	.	.	.	.	.	.	.	.	.	.
4r	.	.	4r	.	4r	.	8dd\	.	4r	.	.	4r	.	.	4r	.	.	4r	.	.	4r	.	4r	.	4r	.	4r	.
.	.	.	.	.	.	.	8ee\	.	.	.	.	.	.	.	.	.	.	.	.	.	.	.	.	.	.	.	.	.
4r	.	.	4r	.	4r	.	8ff\	.	4r	.	.	4r	.	.	4r	.	.	4r	.	.	4r	.	4r	.	4r	.	4r	.
.	.	.	.	.	.	.	8gg\J	.	.	.	.	.	.	.	.	.	.	.	.	.	.	.	.	.	.	.	.	.
=46	=46	=46	=46	=46	=46	=46	=46	=46	=46	=46	=46	=46	=46	=46	=46	=46	=46	=46	=46	=46	=46	=46	=46	=46	=46	=46	=46	=46
4C#X\	.	.	4e 4c#X\	.	4a 4g\	.	4aa 4a\	.	4C#X/	nos	.	4A\	nos	.	4g\	nos	.	4ee\	nos	.	4A/	.	4a\	.	4ee\	.	4gg\	.
4E\	.	.	4e 4c#\	.	4a 4g\	.	4aa 4a\	.	4C#/	ho-	.	4A\	ho-	.	4g\	ho-	.	4ee\	ho-	.	4A/	.	4a\	.	4ee\	.	4gg\	.
4A\	.	.	4e 4c#\	.	4a 4g\	.	4aa 4a\	.	4C#/	-mi-	.	4A\	-mi-	.	4g\	-mi-	.	4ee\	-mi-	.	4A/	.	4a\	.	4ee\	.	4gg\	.
!LO:LB:g=original	!	!	!	!	!LO:LB:g=original	!	!LO:LB:g=original	!	!	!	!	!LO:LB:g=original	!	!	!	!	!	!	!	!	!	!	!	!	!	!	!	!
=47	=47	=47	=47	=47	=47	=47	=47	=47	=47	=47	=47	=47	=47	=47	=47	=47	=47	=47	=47	=47	=47	=47	=47	=47	=47	=47	=47	=47
!LO:SIC:v:s=4c#\	!	!	!LO:SIC:v:s=4e 4c#\	!	!	!	!	!	!LO:SIC:v:s=4C#	!	!	!	!	!	!	!	!	!	!	!	!	!	!	!	!	!	!	!
4c\	.	.	4e 4c\	.	4a 4g\	.	8aaL 8a\	.	4C/	-nes	.	4A\	-nes	.	4g\	-nes	.	4ee\	-nes	.	4A/	.	4a\	.	4ee\	.	4gg\	.
.	.	.	.	.	.	.	8gg#X\	.	.	.	.	.	.	.	.	.	.	.	.	.	.	.	.	.	.	.	.	.
4r	.	.	4r	.	4r	.	8aa\	.	4r	.	.	4r	.	.	4r	.	.	4r	.	.	4r	.	4r	.	4r	.	4r	.
.	.	.	.	.	.	.	8ee\	.	.	.	.	.	.	.	.	.	.	.	.	.	.	.	.	.	.	.	.	.
4r	.	.	4r	.	4r	.	8aa\	.	4r	.	.	4r	.	.	4r	.	.	4r	.	.	4r	.	4r	.	4r	.	4r	.
.	.	.	.	.	.	.	8ggn\J	.	.	.	.	.	.	.	.	.	.	.	.	.	.	.	.	.	.	.	.	.
!	!	!	!	!	!	!	!	!	!	!	!	!	!	!	!LO:LB:g=original	!	!	!LO:LB:g=original	!	!	!	!	!	!	!	!	!	!
=48	=48	=48	=48	=48	=48	=48	=48	=48	=48	=48	=48	=48	=48	=48	=48	=48	=48	=48	=48	=48	=48	=48	=48	=48	=48	=48	=48	=48
*	*	*	*	*	*tremolo	*	*	*	*	*	*	*	*	*	*	*	*	*	*	*	*	*	*	*	*	*	*	*
!	!	!	!	!	!	!	!LO:TX:t=P:problem=mixed beam	!	!	!	!	!	!	!	!	!	!	!	!	!	!	!	!LO:TX:t=P:problem=takt nr 48 zapisany repetycją	!	!	!	!	!
8d\L	.	.	8d/L	.	16a 16f/LL	.	8ff\L	.	4D\	et	.	4A\	et	.	4f\	et	.	4dd\	et	.	4A/	.	4a\yy	.	4dd\	.	4ff\	.
.	.	.	.	.	16a 16f/	.	.	.	.	.	.	.	.	.	.	.	.	.	.	.	.	.	.	.	.	.	.	.
8D\J	.	.	8D/J	.	16a 16f/	.	8f/J	.	.	.	.	.	.	.	.	.	.	.	.	.	.	.	.	.	.	.	.	.
.	.	.	.	.	16a 16f/JJ	.	.	.	.	.	.	.	.	.	.	.	.	.	.	.	.	.	.	.	.	.	.	.
8d\L	.	.	8d/L	.	16a 16f/LL	.	4.ff\	.	4d\	pro-	.	4d\	prop-	.	4.f\	prop-	.	4dd\	prop-	.	4r	.	4ryy	.	2dd\	.	4.ff\	.
.	.	.	.	.	16a 16f/	.	.	.	.	.	.	.	.	.	.	.	.	.	.	.	.	.	.	.	.	.	.	.
8c\	.	.	8c/	.	16a 16f/	.	.	.	.	.	.	.	.	.	.	.	.	.	.	.	.	.	.	.	.	.	.	.
.	.	.	.	.	16a 16f/	.	.	.	.	.	.	.	.	.	.	.	.	.	.	.	.	.	.	.	.	.	.	.
8B-\	.	.	8B-/	.	16a 16f/	.	.	.	4c\	-pter	.	4d\	-ter	.	.	.	.	4dd\	-ter	.	4r	.	4ryy	.	.	.	.	.
.	.	.	.	.	16a 16f/	.	.	.	.	.	.	.	.	.	.	.	.	.	.	.	.	.	.	.	.	.	.	.
8A\J	.	.	8c/J	.	16a 16f/	.	8ff#X\	.	.	.	.	.	.	.	8f#X\	-ter	.	.	.	.	.	.	.	.	.	.	8ff#X\	.
.	.	.	.	.	16a 16f/JJ	.	.	.	.	.	.	.	.	.	.	.	.	.	.	.	.	.	.	.	.	.	.	.
!	!	!	!LO:LB:g=original	!	!	!	!	!	!	!	!	!	!	!	!	!	!	!	!	!	!	!	!	!	!	!	!	!
=49	=49	=49	=49	=49	=49	=49	=49	=49	=49	=49	=49	=49	=49	=49	=49	=49	=49	=49	=49	=49	=49	=49	=49	=49	=49	=49	=49	=49
!	!	!	!	!	!	!	!LO:TX:t=P:problem=mixed beam	!	!	!	!	!	!	!	!	!	!	!	!	!	!LO:TX:a:t=1.:mod=	!	!LO:TX:a:t=1.:mod=	!	!LO:TX:t=P:problem=takt nr 49 zapisany repetycją	!	!	!
8B-\L	.	.	8B-/L	.	16dd\LL	.	8gg\L	.	4B-\	nos-	.	4d\	no-	.	4g\	no-	.	4dd\	no-	.	2.r	.	2.r	.	4dd\yy	.	4gg\	.
.	.	.	.	.	16dd\	.	.	.	.	.	.	.	.	.	.	.	.	.	.	.	.	.	.	.	.	.	.	.
8A\	.	.	8A/	.	16dd\	.	8g/J	.	.	.	.	.	.	.	.	.	.	.	.	.	.	.	.	.	.	.	.	.
.	.	.	.	.	16dd\JJ	.	.	.	.	.	.	.	.	.	.	.	.	.	.	.	.	.	.	.	.	.	.	.
8G\	.	.	8G/	.	16dd\LL	.	4.bb-\	sf	4G\	-tram	.	4d\	-stram	.	4g\	-stram	.	4b-\	-stram	.	.	.	.	.	2dd\yy	.	4.bb-\	.
.	.	.	.	.	16dd\	.	.	.	.	.	.	.	.	.	.	.	.	.	.	.	.	.	.	.	.	.	.	.
8A\	.	.	8A/J	.	16dd\	.	.	.	.	.	.	.	.	.	.	.	.	.	.	.	.	.	.	.	.	.	.	.
.	.	.	.	.	16dd\JJ	.	.	.	.	.	.	.	.	.	.	.	.	.	.	.	.	.	.	.	.	.	.	.
*	*	*	*	*	*Xtremolo	*	*	*	*	*	*	*	*	*	*	*	*	*	*	*	*	*	*	*	*	*	*	*
8B-\	.	.	8B-/L	.	16g/LL	.	.	.	4B-\	sa-	.	4d\	sa-	.	4g\	sa-	.	4dd\	sa-	.	.	.	.	.	.	.	.	.
.	.	.	.	.	16g/	.	.	.	.	.	.	.	.	.	.	.	.	.	.	.	.	.	.	.	.	.	.	.
8Bn\J	.	.	8d/J	.	16f/	.	8gg\	.	.	.	.	.	.	.	.	.	.	.	.	.	.	.	.	.	.	.	8gg\	.
.	.	.	.	.	16f/JJ	.	.	.	.	.	.	.	.	.	.	.	.	.	.	.	.	.	.	.	.	.	.	.
=50	=50	=50	=50	=50	=50	=50	=50	=50	=50	=50	=50	=50	=50	=50	=50	=50	=50	=50	=50	=50	=50	=50	=50	=50	=50	=50	=50	=50
*	*	*	*	*	*tremolo	*	*	*	*	*	*	*	*	*	*	*	*	*	*	*	*	*	*	*	*	*	*	*
!LO:TX:t=P:problem=mixed beam	!	!	!	!	!	!	!	!	!	!	!	!	!	!	!	!	!	!	!	!	!	!	!	!	!	!	!	!
8c\L	.	.	8c\L	.	16g\LL	.	8ee/L	.	4c\	-lu-	.	4e\	-lu-	.	4g\	-lu-	.	4cc\	-lu-	.	4c/	.	4g\	.	4g\	.	4ee\	.
.	.	.	.	.	16g\	.	.	.	.	.	.	.	.	.	.	.	.	.	.	.	.	.	.	.	.	.	.	.
8C/J	.	.	8e\	.	16g\	.	8c/J	.	.	.	.	.	.	.	.	.	.	.	.	.	.	.	.	.	.	.	.	.
.	.	.	.	.	16g\JJ	.	.	.	.	.	.	.	.	.	.	.	.	.	.	.	.	.	.	.	.	.	.	.
8c\L	.	.	8c\	.	16g\LL	.	4.ee\	sf	4c\	-tem	.	4e\	-tem	.	4g\	-tem	.	4cc\	-tem	.	4c/	.	4g\	.	2cc\	.	2ee\	.
.	.	.	.	.	16g\	.	.	.	.	.	.	.	.	.	.	.	.	.	.	.	.	.	.	.	.	.	.	.
8B-\	.	.	8e\	.	16g\	.	.	.	.	.	.	.	.	.	.	.	.	.	.	.	.	.	.	.	.	.	.	.
.	.	.	.	.	16g\JJ	.	.	.	.	.	.	.	.	.	.	.	.	.	.	.	.	.	.	.	.	.	.	.
8c 8A\	.	.	8c\	.	16cc\LL	.	.	.	4B-\	de-	.	4e\	de-	.	4g\	des-	.	4cc\	de-	.	4c/	.	4g\	.	.	.	.	.
.	.	.	.	.	16cc\	.	.	.	.	.	.	.	.	.	.	.	.	.	.	.	.	.	.	.	.	.	.	.
!	!	!	!	!	!	!	!LO:SIC:s=16ddLL	!	!	!	!	!	!	!	!	!	!	!	!	!	!	!	!	!	!	!	!	!
8B-J 8G\	.	.	8e\J	.	16cc\	.	(16dd\LL	.	.	.	.	.	.	.	.	.	.	.	.	.	.	.	.	.	.	.	.	.
!	!	!	!	!	!	!	!LO:SIC:s=16eeJJ	!	!	!	!	!	!	!	!	!	!	!	!	!	!	!	!	!	!	!	!	!
.	.	.	.	.	16cc\JJ	.	16ee\JJ)	.	.	.	.	.	.	.	.	.	.	.	.	.	.	.	.	.	.	.	.	.
!	!	!	!	!	!	!	!	!	!	!	!	!	!	!	!	!	!	!	!	!	!	!	!	!	!LO:LB:g=original	!	!LO:LB:g=original	!
=51	=51	=51	=51	=51	=51	=51	=51	=51	=51	=51	=51	=51	=51	=51	=51	=51	=51	=51	=51	=51	=51	=51	=51	=51	=51	=51	=51	=51
8A\L	.	.	8f\L	.	16cc\LL	.	8ff\L	.	4A\	-scen-	.	4f\	-scen-	.	4f\	-cen-	.	4cc\	-scen-	.	4A/	.	4f\	.	4cc\	.	4ff\	.
.	.	.	.	.	16cc\	.	.	.	.	.	.	.	.	.	.	.	.	.	.	.	.	.	.	.	.	.	.	.
8F\J	.	.	8a\	.	16cc\	.	8cc\J	.	.	.	.	.	.	.	.	.	.	.	.	.	.	.	.	.	.	.	.	.
.	.	.	.	.	16cc\JJ	.	.	.	.	.	.	.	.	.	.	.	.	.	.	.	.	.	.	.	.	.	.	.
*	*	*	*	*	*2\right	*	*	*	*	*	*	*	*	*	*	*	*	*	*	*	*	*	*	*	*	*	*	*
8E\L	.	.	8e\	.	16cc\LL	.	4.gg\	.	4E\	-dit	.	4c\	-dit	.	4g\	-dit	.	4cc\	-dit	.	4c/	.	4g\	.	2cc\	.	2gg\	.
.	.	.	.	.	16cc\	.	.	.	.	.	.	.	.	.	.	.	.	.	.	.	.	.	.	.	.	.	.	.
8C\	.	.	8f\J	.	16cc\	.	.	.	.	.	.	.	.	.	.	.	.	.	.	.	.	.	.	.	.	.	.	.
.	.	.	.	.	16cc\	.	.	.	.	.	.	.	.	.	.	.	.	.	.	.	.	.	.	.	.	.	.	.
!	!	!	!	!	!	!	!	!	!	!LO:MO:mod=de	!	!	!	!	!	!	!	!	!	!	!	!	!	!	!	!	!	!
8D\	.	.	8g\L	.	16cc\	.	.	.	4E\	de-	.	4B-\	de	.	4g\	de	.	4cc\	de	.	4c/	.	4g\	.	.	.	.	.
.	.	.	.	.	16cc\	.	.	.	.	.	.	.	.	.	.	.	.	.	.	.	.	.	.	.	.	.	.	.
8E\J	.	.	8e\J	.	16cc\	.	16ff\LL	.	.	.	.	.	.	.	.	.	.	.	.	.	.	.	.	.	.	.	.	.
.	.	.	.	.	16cc\JJ	.	16gg\JJ	.	.	.	.	.	.	.	.	.	.	.	.	.	.	.	.	.	.	.	.	.
*	*	*	*	*	*Xtremolo	*	*	*	*	*	*	*	*	*	*	*	*	*	*	*	*	*	*	*	*	*	*	*
!	!	!	!	!	!	!	!	!	!LO:LB:g=original	!	!	!	!	!	!	!	!	!	!	!	!	!	!	!	!	!	!	!
=52	=52	=52	=52	=52	=52	=52	=52	=52	=52	=52	=52	=52	=52	=52	=52	=52	=52	=52	=52	=52	=52	=52	=52	=52	=52	=52	=52	=52
!	!	!	!	!	!	!	!	!	!	!LO:MO:mod=cae-	!	!	!	!	!	!LO:MO:mod=cae-	!	!LO:MO:mod=2.a	!LO:MO:mod=cae-	!	!	!	!	!	!	!	!	!
8F\L	.	.	8f\L	.	8cc\L	.	8aa\	.	8F\L	-scen-	.	4A\	cae-	.	8f\L	Cae-	.	2a\	Cae-	.	4f\	.	4a\	.	8cc\L	.	2aa\	.
8C#X\	.	.	8c#X\	.	8a 8f\	.	4aa\	.	8C#X\	.	.	.	.	.	8e\	.	.	.	.	.	.	.	.	.	8ee\	.	.	.
8D\	.	.	8d\	.	8a 8f\	.	.	.	8D\	.	.	4A\	-lis	.	8f\	.	.	.	.	.	4f\	.	4a\	.	8ff\	.	.	.
8E\J	.	.	8e\J	.	8cc#X\	.	4aa\	.	8E\	.	.	.	.	.	8g\	.	.	.	.	.	.	.	.	.	8cc#X\	.	.	.
!LO:TX:t=P:problem=mixed beam	!	!	!	!	!	!	!	!	!	!	!	!	!	!	!	!	!	!LO:MO:mod=.	!	!	!	!	!	!	!	!	!	!
8F\L	.	.	8f\L	.	8dd\	.	.	.	8F\	.	.	4r	.	.	8a\	.	.	4ryy	.	.	4f\	.	4a\	.	8dd\	.	4aa\	.
!	!	!	!	!	!	!	!	!	!LO:SIC:v:s=8AJ	!	!	!	!	!	!	!	!	!	!	!	!	!	!	!	!	!	!	!
8AA/J	.	.	8cn\J	.	8f\J	.	8aa\	.	8G\J	.	.	.	.	.	8f\J	.	.	.	.	.	.	.	.	.	8ff\J	.	.	.
!LO:LB:g=original	!	!	!	!	!	!	!LO:LB:g=original	!	!	!	!	!	!	!	!	!	!	!	!	!	!	!	!LO:LB:g=original	!	!	!	!	!
=53	=53	=53	=53	=53	=53	=53	=53	=53	=53	=53	=53	=53	=53	=53	=53	=53	=53	=53	=53	=53	=53	=53	=53	=53	=53	=53	=53	=53
!	!	!	!	!	!	!	!	!	!	!LO:MO:mod=-lis	!	!	!	!	!	!	!	!	!	!	!	!	!	!	!	!	!	!
8BB-\L	.	.	8d\L	.	8cc\L	.	8aa\L	.	2B-\	-dit	.	(2B-\	de	.	2d\	-lis	.	(4g\	-lis	.	4g\	.	4g\	.	4dd\	.	4aa\	.
8BB-\J	.	.	8d\	.	8cc\	.	8ff#X\	.	.	.	.	.	.	.	.	.	.	.	.	.	.	.	.	.	.	.	.	.
*2\right	*	*	*	*	*	*	*	*	*	*	*	*	*	*	*	*	*	*	*	*	*	*	*	*	*	*	*	*
*tremolo	*	*	*	*	*	*	*	*	*	*	*	*	*	*	*	*	*	*	*	*	*	*	*	*	*	*	*	*
8B-\L	.	.	8d\	.	8dd\	.	8gg\	.	.	.	.	.	.	.	.	.	.	4b-\)	.	.	4r	.	4r	.	4dd\	.	4gg\	.
8B-\	.	.	8f#X\J	.	8cc\	.	8aa\	.	.	.	.	.	.	.	.	.	.	.	.	.	.	.	.	.	.	.	.	.
8B-\	.	.	8g\L	.	8b-\	.	8bb-\	.	4BB-/	de	.	4d\)	.	.	4b-\	de	.	4dd\	de	.	4g\	.	4b-\	.	4b-\	.	4dd\	.
8B-\J	.	.	8d\J	.	8dd\J	.	8gg\J	.	.	.	.	.	.	.	.	.	.	.	.	.	.	.	.	.	.	.	.	.
!	!	!	!	!	!LO:LB:g=original	!	!	!	!	!	!	!	!	!	!	!	!	!	!	!	!	!	!	!	!	!	!	!
=54	=54	=54	=54	=54	=54	=54	=54	=54	=54	=54	=54	=54	=54	=54	=54	=54	=54	=54	=54	=54	=54	=54	=54	=54	=54	=54	=54	=54
!	!	!	!	!	!	!	!	!	!	!LO:MO:mod=cae-	!	!LO:SIC:s=(2.c	!LO:MO:mod=cae-	!	!	!LO:MO:mod=cae-	!	!LO:SIC:s=(2.ff	!LO:MO:mod=cae-	!	!	!	!	!	!	!	!	!
8c\L	.	.	4a 4f\	.	4cc\	.	4ffn\	.	[2.C/	Cae-	.	2.c\	ce-	.	(2.a\	Cae-	.	2.ff\	Cae-	.	4f\	.	4a\	.	2.a\	.	2.ff\	.
8c\	.	.	.	.	.	.	.	.	.	.	.	.	.	.	.	.	.	.	.	.	.	.	.	.	.	.	.	.
8c\	.	.	4f 4A\	.	4a 4f\	.	4ff 4a\	.	.	.	.	.	.	.	.	.	.	.	.	.	4f\	.	4a\	.	.	.	.	.
8c\	.	.	.	.	.	.	.	.	.	.	.	.	.	.	.	.	.	.	.	.	.	.	.	.	.	.	.	.
8c\	.	.	4f 4A\	.	4a 4f\	.	4ff 4a\	.	.	.	.	.	.	.	.	.	.	.	.	.	4f\	.	4a\	.	.	.	.	.
8c\J	.	.	.	.	.	.	.	.	.	.	.	.	.	.	.	.	.	.	.	.	.	.	.	.	.	.	.	.
!	!	!	!LO:LB:g=original	!	!	!	!	!	!	!	!	!LO:LB:g=original	!	!	!LO:LB:g=original	!	!	!	!	!	!LO:LB:g=original	!	!	!	!	!	!	!
=55	=55	=55	=55	=55	=55	=55	=55	=55	=55	=55	=55	=55	=55	=55	=55	=55	=55	=55	=55	=55	=55	=55	=55	=55	=55	=55	=55	=55
!	!	!	!	!	!	!	!	!	!	!	!	!LO:SIC:s=2.B-)	!	!	!	!	!	!LO:SIC:s=2.ee)	!	!	!	!	!	!	!	!	!	!
8C/L	.	.	4c 4C/	.	4b- 4g\	.	4ee 4b-\	.	2.C/]	.	.	2.B-\	.	.	2.g\)	.	.	2.ee\	.	.	4c\	.	4g\	.	2.b-\	.	2.ee\	.
8C/	.	.	.	.	.	.	.	.	.	.	.	.	.	.	.	.	.	.	.	.	.	.	.	.	.	.	.	.
8C/	.	.	4c 4C/	.	4b- 4g\	.	4ee 4b-\	.	.	.	.	.	.	.	.	.	.	.	.	.	4c\	.	4g\	.	.	.	.	.
8C/	.	.	.	.	.	.	.	.	.	.	.	.	.	.	.	.	.	.	.	.	.	.	.	.	.	.	.	.
8C/	.	.	4c 4C/	.	4b- 4g\	.	4ee 4b-\	.	.	.	.	.	.	.	.	.	.	.	.	.	4c\	.	4g\	.	.	.	.	.
8C/J	.	.	.	.	.	.	.	.	.	.	.	.	.	.	.	.	.	.	.	.	.	.	.	.	.	.	.	.
*Xtremolo	*	*	*	*	*	*	*	*	*	*	*	*	*	*	*	*	*	*	*	*	*	*	*	*	*	*	*	*
=56	=56	=56	=56	=56	=56	=56	=56	=56	=56	=56	=56	=56	=56	=56	=56	=56	=56	=56	=56	=56	=56	=56	=56	=56	=56	=56	=56	=56
!	!	!	!	!	!	!	!	!	!	!LO:MO:mod=-lis.	!	!	!LO:MO:mod=-lis.	!	!	!	!	!	!LO:MO:mod=-lis.	!	!	!	!	!	!	!	!	!
4F\	.	.	4c 4F\	.	4a 4f\	.	4ff 4a\	.	4F\	-lis	.	4A\	-lis	.	4a\	-lis.	.	4ff\	-lis	.	4A/	.	4f\	.	4a\	.	4ff\	.
4C\	.	.	4c 4F\	.	4a 4f\	.	4ff 4a\	.	4r	.	.	4r	.	.	4r	.	.	4r	.	.	4A/	.	4f\	.	4a\	.	4ff\	.
!	!	!	!	!	!	!	!	!	!	!	!	!	!	!	!	!	!	!	!	!	!	!	!	!	!LO:TX:t=P:problem=brak kreski taktowej	!	!	!
4AA/	.	.	4c 4F\	.	4a 4f\	.	4ff 4a\	.	4r	.	.	4r	.	.	4r	.	.	4r	.	.	4A/	.	4f\	.	4a\	.	4ff\	.
=57	=57	=57	=57	=57	=57	=57	=57	=57	=57	=57	=57	=57	=57	=57	=57	=57	=57	=57	=57	=57	=57	=57	=57	=57	=57	=57	=57	=57
!	!	!	!	!	!	!	!	!	!LO:TX:a:t=1.:mod=	!	!	!LO:TX:a:t=1.:mod=	!	!	!LO:TX:a:t=1.:mod=	!	!	!LO:TX:a:t=1.:mod=	!	!	!	!	!	!	!LO:TX:t=P:problem=brak pierwszej wartości w takcie	!	!	!
!	!	!	!	!	!	!	!	!	!	!	!	!	!	!	!	!	!	!	!	!	!	!	!	!	!LO:MO:mod=4a@	!	!	!
4FF/	.	.	4c 4F\	.	4a 4f\	.	4ff 4a\	.	2.r	.	.	2.r	.	.	2.r	.	.	2.r	.	.	4A/	.	4f\	.	4ryy	.	4ff\	.
4r	.	.	4r	.	4r	.	4r	.	.	.	.	.	.	.	.	.	.	.	.	.	4r	.	4r	.	4r	.	4r	.
4r	.	.	4r	.	4r	.	4r	.	.	.	.	.	.	.	.	.	.	.	.	.	4r	.	4r	.	4r	.	4r	.
!	!	!	!	!	!LO:TX:b:i:t=Verte:mod=	!	!	!	!	!	!	!	!	!	!	!	!	!	!	!	!	!	!	!	!	!	!	!
==	==	==	==	==	==	==	==	==	==	==	==	==	==	==	==	==	==	==	==	==	==	==	==	==	==	==	==	==
*-	*-	*-	*-	*-	*-	*-	*-	*-	*-	*-	*-	*-	*-	*-	*-	*-	*-	*-	*-	*-	*-	*-	*-	*-	*-	*-	*-	*-
!!!system-decoration: [(g1)][(g2)][(g3)][(g4)]<s12>
!!!RDF**kern: > = above
!!!RDF**kern: < = below
!!!RDF**kern: | = vertical stroke
!!LO:MO:ori
!!!RDF**dynam: f = "for."
!!!RDF**dynam: fp = "fp."
!!!RDF**dynam: p = "p."
!!!RDF**dynam: pp = "pp."
!!!RDF**dynam: sf = "sf."
!!!RDF**dynam: rf = "rf."
!!LO:MO:mod
!! !!!RDF**kern: @ = marked note, color=grey
!!LO:MO:end
!!!ENC: Mateusz Solarz
!!!END: 2020-09-17
!!!ENC: Andrzej Kubiczek
!!!END: 2022-01-31
!!!ENC-modern: Andrzej Kubiczek
!!!END-modern: 2022-11-26
!!!filter-modern: shed -e "s/^custos:/Xcustos:/I" | shed -e "s/^(X?)rep$/$1REP/I" | shed -e "s/^(\d+[\/\\]right)/$1yy/I" | shed -e "s/(LO:DY.*):t=(.*$)/$1:T=$2/L; s/LO:DY(.*)(:a:)(.*)/LO:dy:$1$2$3/L; s/LO:DY(.*)(:b:)(.*)/LO:dy:$1$2$3/L; s/LO:DY(.*)(:rj:)(.*)/LO:dy:$1$2$3/L" | shed -e "s/TX(.*):t=P:/tx$1:t=P:/LG" | shed -e "s/LO:N:/LO:n:$1/L" | shed -k -e "s/([^a-gA-Gn#X-])[<>]/$1/g" | sic -sq | modori -m | autostem -r | tie -s | humtr -p | shed -e "s/yy//"
!!!YEC: Copyright 2022 Narodowy Instytut Fryderyka Chopina (https://polishscores.org)
!!!YEM: License CC-BY-4.0 (https://creativecommons.org/licenses/by/4.0)
